;FLAVOR:Marlin
;TIME:1442
;Filament used: 1.41121m
;Layer height: 0.2
;MINX:39.2
;MINY:41.7
;MINZ:0.3
;MAXX:110.8
;MAXY:98.3
;MAXZ:2.5
;Generated with Cura_SteamEngine 4.4.1
M140 S60
M105
M190 S60
M104 S230
M105
M109 S230
M82 ;absolute extrusion mode
M82 ;absolute extrusion mode
G21       ;metric values
G90       ;absolute positioning
M82       ;set extruder to absolute mode
M106      ;start with the fan on
G28 X0 Y0 ;home X/Y
G28 Z0    ;home Z
G92 E0    ;zero the extruded length
G29       ;initiate auto bed leveling sequence
G1 X150 Y145 Z15 F4000
G1 X150 Y145 Z0.30 F1000
G1 X1 Y150 Z0.25 E15.0 F2000
G1 X1 Y150 Z0.25 E14.0 F4000
G1 X1 Y1 Z0.25 F16000
G1 X1 Y1 Z0.25 E15.0 F4000
G92 E0
M107      ;start with the fan off
G92 E0
G92 E0
G92 E0
G1 F1500 E-6.5
;LAYER_COUNT:13
;LAYER:0
M107
;MESH:Enclosure_Slide.stl
G0 F3600 X69.4 Y48.482 Z0.3
;TYPE:WALL-INNER
G1 F1500 E0
G1 F1800 X78.499 Y48.482 E0.40511
G1 X80.4 Y48.483 E0.48974
G1 X80.6 Y48.483 E0.49865
G1 X80.6 Y48.283 E0.50441
G1 X80.6 Y46.433 E0.58678
G1 X69.4 Y46.433 E1.08542
G1 X69.4 Y48.482 E1.17665
G0 F3600 X69.33 Y48.552
G0 X109.13 Y49.13
G0 X109.2 Y49.2
G1 F1800 X109.2 Y49.4 E1.18555
G1 X107.817 Y49.4 E1.24713
G1 X107.817 Y94.457 E3.25316
G1 X107.78 Y94.718 E3.26489
G1 X107.664 Y94.963 E3.27696
G1 X107.504 Y95.134 E3.28739
G1 X107.278 Y95.261 E3.29893
G1 X107.02 Y95.314 E3.31066
G1 X106.2 Y95.323 E3.34717
G1 X106.2 Y97.567 E3.44707
G1 X43.8 Y97.567 E6.22525
G1 X43.8 Y95.357 E6.32364
G1 X42.829 Y95.291 E6.36697
G1 X42.58 Y95.195 E6.37885
G1 X42.408 Y95.054 E6.38876
G1 X42.279 Y94.871 E6.39872
G1 X42.198 Y94.616 E6.41064
G1 X42.183 Y92.264 E6.51535
G1 X42.183 Y49.4 E8.42375
G1 X40.8 Y49.4 E8.48532
G1 X40.8 Y49.2 E8.49422
G1 X39.934 Y49.2 E8.53278
G1 X39.933 Y45.516 E8.6968
G1 X39.968 Y45.046 E8.71778
G1 X40.068 Y44.603 E8.738
G1 X40.232 Y44.183 E8.75808
G1 X40.461 Y43.781 E8.77867
G1 X40.738 Y43.429 E8.79862
G1 X41.071 Y43.117 E8.81893
G1 X41.447 Y42.857 E8.83929
G1 X41.854 Y42.657 E8.85948
G1 X42.285 Y42.518 E8.87964
G1 X42.729 Y42.446 E8.89966
G1 X63.363 Y42.433 E9.81833
G1 X106.981 Y42.433 E11.76029
G1 X107.443 Y42.468 E11.78092
G1 X107.882 Y42.566 E11.80095
G1 X108.311 Y42.731 E11.82141
G1 X108.708 Y42.956 E11.84173
G1 X109.059 Y43.231 E11.86158
G1 X109.378 Y43.569 E11.88227
G1 X109.636 Y43.938 E11.90232
G1 X109.837 Y44.344 E11.92249
G1 X109.977 Y44.777 E11.94275
G1 X110.05 Y45.221 E11.96278
G1 X110.068 Y48.234 E12.09693
G1 X110.067 Y49.2 E12.13994
G1 X109.2 Y49.2 E12.17854
G0 F3600 X109.6 Y49.6
;TYPE:WALL-OUTER
G1 F1800 X109.6 Y49.8 E12.18744
G1 X108.217 Y49.8 E12.24902
G1 X108.217 Y94.486 E14.23853
G1 X108.167 Y94.835 E14.25422
G1 X107.999 Y95.191 E14.27175
G1 X107.756 Y95.45 E14.28756
G1 X107.417 Y95.641 E14.30489
G1 X107.064 Y95.714 E14.32094
G1 X106.6 Y95.719 E14.34159
G1 X106.6 Y97.967 E14.44168
G1 X43.4 Y97.967 E17.25547
G1 X43.4 Y95.731 E17.35502
G1 X42.742 Y95.686 E17.38439
G1 X42.378 Y95.545 E17.40177
G1 X42.111 Y95.328 E17.41708
G1 X41.917 Y95.051 E17.43214
G1 X41.798 Y94.68 E17.44949
G1 X41.783 Y92.264 E17.55705
G1 X41.783 Y49.8 E19.44764
G1 X40.4 Y49.8 E19.50921
G1 X40.4 Y49.6 E19.51812
G1 X39.534 Y49.6 E19.55667
G1 X39.533 Y45.5 E19.73921
G1 X39.571 Y44.989 E19.76203
G1 X39.685 Y44.483 E19.78512
G1 X39.869 Y44.011 E19.80767
G1 X40.127 Y43.56 E19.83081
G1 X40.444 Y43.157 E19.85363
G1 X40.822 Y42.803 E19.87669
G1 X41.243 Y42.511 E19.8995
G1 X41.702 Y42.285 E19.92228
G1 X42.192 Y42.128 E19.94519
G1 X42.696 Y42.046 E19.96792
G1 X63.363 Y42.033 E20.88806
G1 X106.998 Y42.033 E22.83078
G1 X107.498 Y42.071 E22.8531
G1 X108 Y42.183 E22.876
G1 X108.483 Y42.369 E22.89905
G1 X108.933 Y42.624 E22.92207
G1 X109.33 Y42.935 E22.94453
G1 X109.688 Y43.314 E22.96774
G1 X109.98 Y43.732 E22.99044
G1 X110.21 Y44.196 E23.0135
G1 X110.367 Y44.682 E23.03624
G1 X110.45 Y45.185 E23.05893
G1 X110.468 Y48.235 E23.19473
G1 X110.466 Y49.6 E23.2555
G1 X109.6 Y49.6 E23.29406
G0 F3600 X109.6 Y49.8
G0 X109.13 Y49.33
G0 X69.372 Y48.51
G0 X69.8 Y48.082
G1 F1800 X78.499 Y48.082 E23.68135
G1 X80 Y48.083 E23.74818
G1 X80.2 Y48.083 E23.75709
G1 X80.2 Y47.883 E23.76285
G1 X80.2 Y46.833 E23.8096
G1 X69.8 Y46.833 E24.27263
G1 X69.8 Y48.082 E24.32824
G0 F3600 X70 Y48.082
G0 X70 Y48.582
G0 X69.01 Y48.872
;TYPE:SKIN
G1 F1800 X78.499 Y48.872 E24.75071
G1 X80.99 Y48.873 E24.86161
G1 X80.99 Y46.043 E24.98761
G1 X69.01 Y46.043 E25.52098
G1 X69.01 Y48.872 E25.64693
G0 F3600 X63.363 Y42.823
G1 F1800 X106.978 Y42.823 E27.58876
G1 X107.383 Y42.854 E27.60685
G1 X107.765 Y42.939 E27.62427
G1 X108.143 Y43.084 E27.64229
G1 X108.498 Y43.285 E27.66046
G1 X108.791 Y43.516 E27.67707
G1 X109.071 Y43.811 E27.69518
G1 X109.303 Y44.144 E27.71325
G1 X109.473 Y44.487 E27.73029
G1 X109.597 Y44.87 E27.74821
G1 X109.66 Y45.254 E27.76554
G1 X109.677 Y48.81 E27.92386
G1 X108.81 Y48.81 E27.96246
G1 X108.81 Y49.01 E27.97137
G1 X107.427 Y49.01 E28.03294
G1 X107.427 Y94.43 E30.05513
G1 X107.402 Y94.602 E30.06287
G1 X107.336 Y94.743 E30.0698
G1 X107.261 Y94.824 E30.07471
G1 X107.14 Y94.891 E30.08087
G1 X106.979 Y94.924 E30.08819
G1 X105.81 Y94.937 E30.14024
G1 X105.81 Y97.177 E30.23997
G1 X44.19 Y97.177 E32.98341
G1 X44.19 Y94.993 E33.08065
G1 X42.912 Y94.905 E33.13768
G1 X42.781 Y94.855 E33.14393
G1 X42.694 Y94.783 E33.14895
G1 X42.634 Y94.698 E33.15359
G1 X42.588 Y94.553 E33.16036
G1 X42.573 Y92.264 E33.26227
G1 X42.573 Y49.01 E35.18803
G1 X41.19 Y49.01 E35.2496
G1 X41.19 Y48.81 E35.25851
G1 X40.324 Y48.81 E35.29706
G1 X40.323 Y45.516 E35.44372
G1 X40.354 Y45.107 E35.46198
G1 X40.442 Y44.718 E35.47974
G1 X40.584 Y44.353 E35.49717
G1 X40.788 Y43.996 E35.51548
G1 X41.021 Y43.698 E35.53232
G1 X41.318 Y43.421 E35.5504
G1 X41.647 Y43.193 E35.56822
G1 X42.002 Y43.019 E35.58583
G1 X42.374 Y42.899 E35.60323
G1 X42.762 Y42.836 E35.62073
G1 X63.363 Y42.823 E36.53793
G0 F3600 X78.499 Y72.872
G1 F1800 X81.81 Y72.873 E36.68534
G1 X81.81 Y73.177 E36.69887
G1 X68.19 Y73.177 E37.30526
G1 X68.19 Y72.872 E37.31884
G1 X78.499 Y72.872 E37.77782
G0 F3600 X78.499 Y72.472
G1 F1800 X82.21 Y72.473 E37.94304
G1 X82.21 Y73.577 E37.99219
G1 X67.79 Y73.577 E38.6342
G1 X67.79 Y72.985 E38.66056
G1 X66.173 Y72.874 E38.73272
G1 X66.173 Y72.472 E38.75062
G1 X78.499 Y72.472 E39.2994
G0 F3600 X78.499 Y72.072
G1 F1800 X82.61 Y72.073 E39.48243
G1 X82.61 Y73.977 E39.5672
G1 X67.39 Y73.977 E40.24482
G1 X67.39 Y73.358 E40.27238
G1 X65.773 Y73.247 E40.34454
G1 X65.773 Y72.072 E40.39686
G1 X78.499 Y72.072 E40.96344
G0 F3600 X78.499 Y71.672
G1 F1800 X84.627 Y71.673 E41.23627
G1 X84.627 Y72.347 E41.26628
G1 X83.01 Y72.365 E41.33828
G1 X83.01 Y74.377 E41.42786
G1 X66.99 Y74.377 E42.1411
G1 X66.99 Y73.731 E42.16986
G1 X65.373 Y73.62 E42.24202
G1 X65.373 Y71.672 E42.32875
G1 X78.499 Y71.672 E42.91315
G0 F3600 X78.499 Y71.272
G1 F1800 X85.027 Y71.273 E43.20379
G1 X85.027 Y72.743 E43.26923
G1 X83.41 Y72.761 E43.34123
G1 X83.41 Y74.777 E43.43099
G1 X66.59 Y74.777 E44.17985
G1 X66.59 Y74.104 E44.20981
G1 X64.973 Y73.993 E44.28197
G1 X64.973 Y71.272 E44.40312
G1 X78.499 Y71.272 E45.00532
G0 F3600 X78.499 Y70.872
G1 F1800 X85.427 Y70.873 E45.31377
G1 X85.427 Y73.139 E45.41466
G1 X83.81 Y73.157 E45.48665
G1 X83.81 Y75.177 E45.57659
G1 X66.19 Y75.177 E46.36107
G1 X66.19 Y74.477 E46.39223
G1 X64.573 Y74.366 E46.46439
G1 X64.573 Y70.872 E46.61995
G1 X78.499 Y70.872 E47.23997
G0 F3600 X78.499 Y70.472
G1 F1800 X85.827 Y70.473 E47.56622
G1 X85.827 Y73.535 E47.70255
G1 X84.21 Y73.553 E47.77455
G1 X84.21 Y75.577 E47.86466
G1 X65.79 Y75.577 E48.68475
G1 X65.79 Y74.85 E48.71712
G1 X64.173 Y74.739 E48.78928
G1 X64.173 Y70.472 E48.97926
G1 X78.499 Y70.472 E49.61708
G0 F3600 X78.499 Y70.072
G1 F1800 X86.227 Y70.073 E49.96115
G1 X86.227 Y73.931 E50.13291
G1 X84.61 Y73.949 E50.20491
G1 X84.61 Y75.977 E50.2952
G1 X65.39 Y75.977 E51.15091
G1 X65.39 Y75.223 E51.18448
G1 X63.773 Y75.112 E51.25665
G1 X63.773 Y70.072 E51.48104
G1 X78.499 Y70.072 E52.13667
G0 F3600 X78.499 Y69.672
G1 F1800 X86.627 Y69.673 E52.49854
G1 X86.627 Y74.327 E52.70575
G1 X85.01 Y74.345 E52.77774
G1 X85.01 Y76.377 E52.86821
G1 X64.99 Y76.377 E53.75954
G1 X64.99 Y75.596 E53.79432
G1 X63.373 Y75.485 E53.86648
G1 X63.373 Y69.672 E54.12528
G1 X78.499 Y69.672 E54.79872
G0 F3600 X78.499 Y69.272
G1 F1800 X87.027 Y69.273 E55.17841
G1 X87.027 Y74.723 E55.42105
G1 X85.41 Y74.741 E55.49305
G1 X85.41 Y76.777 E55.5837
G1 X64.59 Y76.777 E56.51064
G1 X64.59 Y75.969 E56.54662
G1 X62.973 Y75.858 E56.61878
G1 X62.973 Y69.272 E56.912
G1 X78.499 Y69.272 E57.60325
G0 F3600 X78.499 Y68.872
G1 F1800 X87.427 Y68.873 E58.00074
G1 X87.427 Y75.119 E58.27883
G1 X85.81 Y75.137 E58.35082
G1 X85.81 Y77.177 E58.44165
G1 X64.19 Y77.177 E59.40421
G1 X64.19 Y76.342 E59.44139
G1 X62.573 Y76.231 E59.51355
G1 X62.573 Y68.872 E59.84119
G1 X78.499 Y68.872 E60.55025
G0 F3600 X78.499 Y68.472
G1 F1800 X87.827 Y68.473 E60.96555
G1 X87.827 Y75.515 E61.27907
G1 X86.21 Y75.533 E61.35107
G1 X86.21 Y77.577 E61.44207
G1 X63.79 Y77.577 E62.44026
G1 X63.79 Y76.715 E62.47863
G1 X62.173 Y76.604 E62.5508
G1 X62.173 Y68.472 E62.91285
G1 X78.499 Y68.472 E63.63972
G0 F3600 X78.499 Y68.072
G1 F1800 X88.227 Y68.073 E64.07283
G1 X88.227 Y75.911 E64.42179
G1 X86.61 Y75.929 E64.49379
G1 X86.61 Y77.977 E64.58497
G1 X63.39 Y77.977 E65.61877
G1 X63.39 Y77.088 E65.65835
G1 X61.773 Y76.977 E65.73051
G1 X61.773 Y68.072 E66.12698
G1 X78.499 Y68.072 E66.87165
G0 F3600 X78.499 Y67.672
G1 F1800 X88.627 Y67.673 E67.32257
G1 X88.627 Y76.307 E67.70698
G1 X87.01 Y76.325 E67.77897
G1 X87.01 Y78.377 E67.87033
G1 X62.99 Y78.377 E68.93975
G1 X62.99 Y77.461 E68.98053
G1 X61.373 Y77.35 E69.05269
G1 X61.373 Y67.672 E69.48358
G1 X78.499 Y67.672 E70.24606
G0 F3600 X78.499 Y67.272
G1 F1800 X89.027 Y67.273 E70.71479
G1 X89.027 Y76.703 E71.13463
G1 X87.41 Y76.721 E71.20663
G1 X87.41 Y78.777 E71.29817
G1 X62.59 Y78.777 E72.4032
G1 X62.59 Y77.834 E72.44519
G1 X60.973 Y77.723 E72.51735
G1 X60.973 Y67.272 E72.98265
G1 X78.499 Y67.272 E73.76294
G0 F3600 X78.499 Y66.872
G1 F1800 X89.427 Y66.873 E74.24948
G1 X89.427 Y77.099 E74.70476
G1 X87.81 Y77.117 E74.77676
G1 X87.81 Y79.177 E74.86847
G1 X62.19 Y79.177 E76.00913
G1 X62.19 Y78.207 E76.05231
G1 X60.573 Y78.096 E76.12447
G1 X60.573 Y66.872 E76.62419
G1 X78.499 Y66.872 E77.42229
G0 F3600 X78.499 Y66.472
G1 F1800 X89.827 Y66.473 E77.92664
G1 X89.827 Y77.495 E78.41736
G1 X88.21 Y77.513 E78.48935
G1 X88.21 Y79.577 E78.58125
G1 X61.79 Y79.577 E79.75752
G1 X61.79 Y78.58 E79.80191
G1 X60.173 Y78.469 E79.87407
G1 X60.173 Y66.472 E80.4082
G1 X78.499 Y66.472 E81.22411
G0 F3600 X78.499 Y66.072
G1 F1800 X90.227 Y66.073 E81.74626
G1 X90.227 Y77.891 E82.27243
G1 X88.61 Y77.909 E82.34442
G1 X88.61 Y79.977 E82.43649
G1 X61.39 Y79.977 E83.64838
G1 X61.39 Y78.953 E83.69397
G1 X59.773 Y78.842 E83.76613
G1 X59.773 Y66.072 E84.33468
G1 X78.499 Y66.072 E85.1684
G0 F3600 X78.499 Y65.672
G1 F1800 X90.627 Y65.673 E85.70836
G1 X90.627 Y78.287 E86.26996
G1 X89.01 Y78.305 E86.34196
G1 X89.01 Y80.377 E86.43421
G1 X60.99 Y80.377 E87.68172
G1 X60.99 Y79.326 E87.72851
G1 X59.373 Y79.215 E87.80067
G1 X59.373 Y65.672 E88.40363
G1 X78.499 Y65.672 E89.25516
G0 F3600 X78.499 Y65.272
G1 F1800 X91.027 Y65.273 E89.81293
G1 X91.027 Y78.683 E90.40997
G1 X89.41 Y78.701 E90.48197
G1 X89.41 Y80.777 E90.5744
G1 X60.59 Y80.777 E91.85752
G1 X60.59 Y79.699 E91.90552
G1 X58.973 Y79.588 E91.97768
G1 X58.973 Y65.272 E92.61506
G1 X78.499 Y65.272 E93.48439
G0 F3600 X78.499 Y64.872
G1 F1800 X91.427 Y64.873 E94.05997
G1 X91.427 Y79.079 E94.69245
G1 X89.81 Y79.097 E94.76445
G1 X89.81 Y81.177 E94.85705
G1 X60.19 Y81.177 E96.1758
G1 X60.19 Y80.072 E96.22499
G1 X58.573 Y79.961 E96.29716
G1 X58.573 Y64.872 E96.96895
G1 X78.499 Y64.872 E97.85609
G0 F3600 X78.499 Y64.472
G1 F1800 X91.827 Y64.473 E98.44948
G1 X91.827 Y79.475 E99.1174
G1 X90.21 Y79.493 E99.1894
G1 X90.21 Y81.577 E99.28218
G1 X59.79 Y81.577 E100.63654
G1 X59.79 Y80.445 E100.68694
G1 X58.173 Y80.334 E100.7591
G1 X58.173 Y64.472 E101.46531
G1 X78.499 Y64.472 E102.37027
G0 F3600 X78.499 Y64.072
G1 F1800 X92.227 Y64.073 E102.98146
G1 X92.227 Y79.871 E103.68482
G1 X90.61 Y79.889 E103.75682
G1 X90.61 Y81.977 E103.84978
G1 X59.39 Y81.977 E105.23976
G1 X59.39 Y80.818 E105.29136
G1 X57.773 Y80.707 E105.36352
G1 X57.773 Y64.072 E106.10415
G1 X78.499 Y64.072 E107.02691
G0 F3600 X78.499 Y63.672
G1 F1800 X92.627 Y63.673 E107.65592
G1 X92.627 Y80.267 E108.39471
G1 X91.01 Y80.285 E108.46671
G1 X91.01 Y82.377 E108.55985
G1 X58.99 Y82.377 E109.98545
G1 X58.99 Y81.191 E110.03825
G1 X57.373 Y81.08 E110.11041
G1 X57.373 Y63.672 E110.88545
G1 X78.499 Y63.672 E111.82602
G0 F3600 X78.499 Y63.272
G1 F1800 X93.027 Y63.273 E112.47284
G1 X93.027 Y80.663 E113.24708
G1 X91.41 Y80.681 E113.31907
G1 X91.41 Y82.777 E113.41239
G1 X58.59 Y82.777 E114.8736
G1 X58.59 Y81.564 E114.92761
G1 X56.973 Y81.453 E114.99977
G1 X56.973 Y63.272 E115.80922
G1 X78.499 Y63.272 E116.7676
G0 F3600 X78.499 Y62.872
G1 F1800 X93.427 Y62.873 E117.43223
G1 X93.427 Y81.059 E118.24191
G1 X91.81 Y81.077 E118.3139
G1 X91.81 Y83.177 E118.4074
G1 X58.19 Y83.177 E119.90423
G1 X58.19 Y81.937 E119.95944
G1 X56.573 Y81.826 E120.0316
G1 X56.573 Y62.872 E120.87547
G1 X78.499 Y62.872 E121.85166
G0 F3600 X78.499 Y62.472
G1 F1800 X93.827 Y62.473 E122.53409
G1 X93.827 Y81.455 E123.37921
G1 X92.21 Y81.473 E123.45121
G1 X92.21 Y83.577 E123.54488
G1 X57.79 Y83.577 E125.07733
G1 X57.79 Y82.31 E125.13374
G1 X56.173 Y82.199 E125.2059
G1 X56.173 Y62.472 E126.08418
G1 X78.499 Y62.472 E127.07818
G0 F3600 X78.499 Y62.072
G1 F1800 X94.19 Y62.073 E127.77678
G1 X94.19 Y56.023 E128.04614
G1 X94.227 Y56.023 E128.04778
G1 X94.227 Y81.851 E129.1977
G1 X92.61 Y81.869 E129.26969
G1 X92.61 Y83.977 E129.36355
G1 X57.39 Y83.977 E130.93161
G1 X57.39 Y82.683 E130.98922
G1 X55.773 Y82.572 E131.06139
G1 X55.773 Y56.029 E132.24313
G1 X55.81 Y56.028 E132.24478
G1 X55.81 Y62.072 E132.51387
G1 X78.499 Y62.072 E133.52403
G0 F3600 X78.499 Y61.672
G1 F1800 X93.79 Y61.673 E134.20482
G1 X93.79 Y55.623 E134.47418
G1 X94.627 Y55.623 E134.51144
G1 X94.627 Y82.247 E135.6968
G1 X93.01 Y82.265 E135.76879
G1 X93.01 Y84.377 E135.86282
G1 X56.99 Y84.377 E137.46651
G1 X56.99 Y83.056 E137.52532
G1 X55.373 Y82.945 E137.59748
G1 X55.373 Y55.629 E138.81364
G1 X56.21 Y55.628 E138.85091
G1 X56.21 Y61.672 E139.12
G1 X78.499 Y61.672 E140.11235
G0 F3600 X78.499 Y61.272
G1 F1800 X93.39 Y61.273 E140.77533
G1 X93.39 Y55.223 E141.04469
G1 X95.027 Y55.223 E141.11757
G1 X95.027 Y82.643 E142.33836
G1 X93.41 Y82.661 E142.41036
G1 X93.41 Y84.777 E142.50457
G1 X56.59 Y84.777 E144.14387
G1 X56.59 Y83.429 E144.20389
G1 X54.973 Y83.318 E144.27605
G1 X54.973 Y55.23 E145.52658
G1 X56.61 Y55.227 E145.59946
G1 X56.61 Y61.272 E145.8686
G1 X78.499 Y61.272 E146.84314
G0 F3600 X78.499 Y60.872
G1 F1800 X92.99 Y60.873 E147.48831
G1 X92.99 Y54.823 E147.75767
G1 X95.427 Y54.823 E147.86617
G1 X95.427 Y83.039 E149.1224
G1 X93.81 Y83.057 E149.1944
G1 X93.81 Y85.177 E149.28879
G1 X56.19 Y85.177 E150.9637
G1 X56.19 Y83.802 E151.02492
G1 X54.573 Y83.691 E151.09708
G1 X54.573 Y54.83 E152.38203
G1 X57.01 Y54.827 E152.49053
G1 X57.01 Y60.872 E152.75967
G1 X78.499 Y60.872 E153.7164
G0 F3600 X78.499 Y60.472
G1 F1800 X92.59 Y60.473 E154.34376
G1 X92.59 Y54.423 E154.61312
G1 X95.827 Y54.423 E154.75724
G1 X95.827 Y83.435 E156.04891
G1 X94.21 Y83.453 E156.12091
G1 X94.21 Y85.577 E156.21547
G1 X55.79 Y85.577 E157.92601
G1 X55.79 Y84.175 E157.98843
G1 X54.173 Y84.064 E158.06059
G1 X54.173 Y54.431 E159.37991
G1 X57.41 Y54.426 E159.52403
G1 X57.41 Y60.472 E159.79321
G1 X78.499 Y60.472 E160.73213
G0 F3600 X78.499 Y60.072
G1 F1800 X92.19 Y60.073 E161.34168
