;FLAVOR:Marlin
;TIME:3834
;Filament used: 2.89312m
;Layer height: 0.2
;MINX:39.2
;MINY:41.7
;MINZ:0.3
;MAXX:110.9
;MAXY:98.3
;MAXZ:23.7
;Generated with Cura_SteamEngine 4.4.1
M140 S60
M105
M190 S60
M104 S230
M105
M109 S230
M82 ;absolute extrusion mode
M82 ;absolute extrusion mode
G21       ;metric values
G90       ;absolute positioning
M82       ;set extruder to absolute mode
M106      ;start with the fan on
G28 X0 Y0 ;home X/Y
G28 Z0    ;home Z
G92 E0    ;zero the extruded length
G29       ;initiate auto bed leveling sequence
G1 X150 Y145 Z15 F4000
G1 X150 Y145 Z0.30 F1000
G1 X1 Y150 Z0.25 E15.0 F2000
G1 X1 Y150 Z0.25 E14.0 F4000
G1 X1 Y1 Z0.25 F16000
G1 X1 Y1 Z0.25 E15.0 F4000
G92 E0
M107      ;start with the fan off
G92 E0
G92 E0
G92 E0
G1 F1500 E-6.5
;LAYER_COUNT:118
;LAYER:0
M107
;MESH:Enclosure_Body.stl
G0 F3600 X48.7 Y88.77 Z0.3
;TYPE:WALL-INNER
G1 F1500 E0
G1 F1800 X101.3 Y88.77 E2.34186
G1 X101.3 Y81.89 E2.64817
G1 X48.7 Y81.89 E4.99003
G1 X48.7 Y88.77 E5.29634
G0 F3600 X48.63 Y88.84
G0 X48.672 Y81.862
G0 X107.668 Y42.269
G0 X107.688 Y42.172
G1 F1800 X108.134 Y42.295 E5.31694
G1 X108.562 Y42.481 E5.33771
G1 X108.958 Y42.721 E5.35833
G1 X109.313 Y43.01 E5.37871
G1 X109.635 Y43.356 E5.39975
G1 X109.902 Y43.734 E5.42036
G1 X110.117 Y44.146 E5.44105
G1 X110.271 Y44.578 E5.46147
G1 X110.366 Y45.03 E5.48203
G1 X110.399 Y45.523 E5.50403
G1 X110.4 Y46.183 E5.53341
G1 X110.4 Y94.13 E7.66811
G1 X110.392 Y94.728 E7.69474
G1 X110.328 Y95.188 E7.71542
G1 X110.205 Y95.634 E7.73601
G1 X110.019 Y96.062 E7.75679
G1 X109.779 Y96.458 E7.77741
G1 X109.49 Y96.813 E7.79779
G1 X109.141 Y97.138 E7.81902
G1 X108.764 Y97.404 E7.83956
G1 X108.36 Y97.615 E7.85985
G1 X107.919 Y97.771 E7.88068
G1 X107.47 Y97.866 E7.90111
G1 X106.977 Y97.899 E7.92311
G1 X43.426 Y97.9 E10.75253
G1 X42.772 Y97.892 E10.78165
G1 X42.312 Y97.828 E10.80233
G1 X41.866 Y97.705 E10.82293
G1 X41.438 Y97.519 E10.8437
G1 X41.041 Y97.279 E10.86436
G1 X40.687 Y96.99 E10.8847
G1 X40.362 Y96.641 E10.90593
G1 X40.096 Y96.264 E10.92648
G1 X39.885 Y95.86 E10.94677
G1 X39.729 Y95.419 E10.9676
G1 X39.634 Y94.97 E10.98803
G1 X39.601 Y94.477 E11.01003
G1 X39.6 Y45.552 E13.18827
G1 X39.632 Y45.042 E13.21102
G1 X39.728 Y44.583 E13.2319
G1 X39.881 Y44.148 E13.25243
G1 X40.098 Y43.731 E13.27335
G1 X40.358 Y43.361 E13.29349
G1 X40.679 Y43.018 E13.3144
G1 X41.035 Y42.727 E13.33488
G1 X41.439 Y42.482 E13.35591
G1 X41.853 Y42.302 E13.37601
G1 X42.313 Y42.172 E13.39729
G1 X42.762 Y42.11 E13.41747
G1 X106.555 Y42.1 E16.25767
G1 X107.228 Y42.108 E16.28763
G1 X107.688 Y42.172 E16.30831
G0 F3600 X107.768 Y41.779
;TYPE:WALL-OUTER
G1 F1800 X108.273 Y41.919 E16.33164
G1 X108.742 Y42.123 E16.35441
G1 X109.191 Y42.395 E16.37778
G1 X109.589 Y42.719 E16.40063
G1 X109.946 Y43.102 E16.42394
G1 X110.243 Y43.522 E16.44684
G1 X110.485 Y43.988 E16.47022
G1 X110.655 Y44.465 E16.49277
G1 X110.763 Y44.978 E16.51611
G1 X110.799 Y45.511 E16.53989
G1 X110.8 Y46.182 E16.56977
G1 X110.8 Y94.135 E18.70473
G1 X110.792 Y94.756 E18.73238
G1 X110.721 Y95.268 E18.7554
G1 X110.581 Y95.773 E18.77873
G1 X110.377 Y96.242 E18.8015
G1 X110.105 Y96.691 E18.82487
G1 X109.781 Y97.089 E18.84772
G1 X109.395 Y97.449 E18.87122
G1 X108.976 Y97.745 E18.89406
G1 X108.518 Y97.983 E18.91704
G1 X108.032 Y98.156 E18.94001
G1 X107.522 Y98.263 E18.96321
G1 X106.989 Y98.299 E18.98699
G1 X43.421 Y98.3 E21.81717
G1 X42.744 Y98.292 E21.84731
G1 X42.232 Y98.221 E21.87032
G1 X41.727 Y98.081 E21.89366
G1 X41.258 Y97.877 E21.91643
G1 X40.808 Y97.605 E21.93984
G1 X40.411 Y97.281 E21.96265
G1 X40.051 Y96.895 E21.98615
G1 X39.755 Y96.476 E22.00899
G1 X39.517 Y96.018 E22.03197
G1 X39.344 Y95.532 E22.05494
G1 X39.237 Y95.022 E22.07814
G1 X39.201 Y94.489 E22.10192
G1 X39.2 Y45.543 E24.2811
G1 X39.235 Y44.984 E24.30603
G1 X39.34 Y44.48 E24.32896
G1 X39.514 Y43.988 E24.35219
G1 X39.755 Y43.523 E24.37551
G1 X40.047 Y43.108 E24.3981
G1 X40.407 Y42.723 E24.42157
G1 X40.804 Y42.399 E24.44438
G1 X41.252 Y42.127 E24.46772
G1 X41.719 Y41.924 E24.49039
G1 X42.228 Y41.78 E24.51394
G1 X42.737 Y41.71 E24.53681
G1 X106.56 Y41.7 E27.37834
G1 X107.256 Y41.708 E27.40933
G1 X107.768 Y41.779 E27.43234
G0 F3600 X107.96 Y41.832
G0 X107.827 Y42.313
G0 X48.672 Y81.862
G0 X48.6 Y88.37
G0 X49.1 Y88.37
G1 F1800 X100.9 Y88.37 E29.73858
G1 X100.9 Y82.29 E30.00928
G1 X49.1 Y82.29 E32.31552
G1 X49.1 Y88.37 E32.58621
G0 F3600 X49.3 Y88.37
G0 X49.3 Y88.87
G0 X48.31 Y89.16
;TYPE:SKIN
G1 F1800 X101.69 Y89.16 E34.9628
G1 X101.69 Y81.5 E35.30384
G1 X48.31 Y81.5 E37.68042
G1 X48.31 Y89.16 E38.02146
G0 F3600 X43.43 Y97.51
G1 F1800 X42.8 Y97.502 E38.04951
G1 X42.394 Y97.446 E38.06776
G1 X41.993 Y97.335 E38.08628
G1 X41.618 Y97.173 E38.10447
G1 X41.264 Y96.959 E38.12289
G1 X40.956 Y96.707 E38.14061
G1 X40.661 Y96.39 E38.15988
G1 X40.432 Y96.065 E38.17759
G1 X40.246 Y95.709 E38.19547
G1 X40.106 Y95.313 E38.21417
G1 X40.022 Y94.921 E38.23202
G1 X39.991 Y94.451 E38.25299
G1 X39.99 Y45.577 E40.42896
G1 X40.02 Y45.091 E40.45064
G1 X40.105 Y44.686 E40.46906
G1 X40.24 Y44.304 E40.4871
G1 X40.433 Y43.932 E40.50576
G1 X40.658 Y43.612 E40.52317
G1 X40.949 Y43.301 E40.54214
G1 X41.259 Y43.047 E40.55998
G1 X41.624 Y42.827 E40.57895
G1 X41.984 Y42.67 E40.59644
G1 X42.393 Y42.554 E40.61537
G1 X42.786 Y42.5 E40.63303
G1 X106.551 Y42.49 E43.47197
G1 X107.201 Y42.498 E43.50092
G1 X107.606 Y42.554 E43.51912
G1 X108.005 Y42.664 E43.53755
G1 X108.377 Y42.826 E43.55561
G1 X108.738 Y43.043 E43.57436
G1 X109.042 Y43.291 E43.59183
G1 X109.333 Y43.604 E43.61086
G1 X109.568 Y43.937 E43.629
G1 X109.759 Y44.302 E43.64735
G1 X109.893 Y44.676 E43.66503
G1 X109.978 Y45.078 E43.68333
G1 X110.009 Y45.549 E43.70434
G1 X110.01 Y46.183 E43.73257
G1 X110.01 Y94.124 E45.867
G1 X110.002 Y94.7 E45.89265
G1 X109.946 Y95.106 E45.91089
G1 X109.835 Y95.507 E45.92942
G1 X109.674 Y95.877 E45.94738
G1 X109.457 Y96.238 E45.96614
G1 X109.207 Y96.544 E45.98373
G1 X108.89 Y96.839 E46.00301
G1 X108.565 Y97.068 E46.02071
G1 X108.209 Y97.254 E46.03859
G1 X107.813 Y97.394 E46.05729
G1 X107.421 Y97.478 E46.07514
G1 X106.951 Y97.509 E46.09611
G1 X43.43 Y97.51 E48.92419
G0 F3600 X48.672 Y81.862
G0 X90.81 Y62.3
G1 F1800 X59.191 Y62.3 E50.33194
G1 X59.19 Y61.7 E50.35865
G1 X90.81 Y61.69 E51.76643
G1 X90.81 Y62.3 E51.79359
G0 F3600 X91.21 Y62.7
G1 F1800 X58.791 Y62.7 E53.23695
G1 X58.79 Y61.3 E53.29928
G1 X91.21 Y61.29 E54.74269
G1 X91.21 Y62.7 E54.80546
G0 F3600 X91.61 Y63.1
G1 F1800 X58.391 Y63.1 E56.28444
G1 X58.39 Y60.9 E56.38239
G1 X91.61 Y60.89 E57.86141
G1 X91.61 Y63.1 E57.9598
G0 F3600 X92.01 Y63.5
G1 F1800 X57.991 Y63.5 E59.4744
G1 X57.99 Y60.5 E59.60796
G1 X92.01 Y60.49 E61.1226
G1 X92.01 Y63.5 E61.25661
G0 F3600 X92.41 Y63.9
G1 F1800 X57.591 Y63.9 E62.80683
G1 X57.59 Y60.1 E62.97601
G1 X92.41 Y60.09 E64.52627
G1 X92.41 Y63.9 E64.6959
G0 F3600 X92.81 Y64.3
G1 F1800 X57.191 Y64.3 E66.28173
G1 X57.19 Y59.7 E66.48653
G1 X92.81 Y59.69 E68.0724
G1 X92.81 Y64.3 E68.27765
G0 F3600 X93.21 Y64.7
G1 F1800 X56.791 Y64.7 E69.89909
G1 X56.79 Y59.3 E70.13951
G1 X93.21 Y59.29 E71.76101
G1 X93.21 Y64.7 E72.00187
G0 F3600 X93.61 Y65.1
G1 F1800 X56.391 Y65.1 E73.65893
G1 X56.39 Y58.9 E73.93497
G1 X93.61 Y58.89 E75.59208
G1 X93.61 Y65.1 E75.86856
G0 F3600 X94.01 Y65.5
G1 F1800 X55.991 Y65.5 E77.56125
G1 X55.99 Y58.5 E77.8729
G1 X94.01 Y58.49 E79.56563
G1 X94.01 Y65.5 E79.87773
G0 F3600 X94.41 Y65.9
G1 F1800 X55.591 Y65.9 E81.60603
G1 X55.59 Y58.1 E81.9533
G1 X94.41 Y58.09 E83.68164
G1 X94.41 Y65.9 E84.02936
G0 F3600 X94.81 Y66.3
G1 F1800 X55.191 Y66.3 E85.79328
G1 X55.19 Y57.7 E86.17617
G1 X94.81 Y57.69 E87.94013
G1 X94.81 Y66.3 E88.32346
G0 F3600 X95.21 Y66.7
G1 F1800 X54.791 Y66.7 E90.123
G1 X54.79 Y57.3 E90.54151
G1 X95.21 Y57.29 E92.34109
G1 X95.21 Y66.7 E92.76004
G0 F3600 X95.61 Y67.1
G1 F1800 X54.391 Y67.1 E94.59519
G1 X54.39 Y56.9 E95.04932
G1 X95.61 Y56.89 E96.88451
G1 X95.61 Y67.1 E97.33908
G0 F3600 X96.01 Y67.5
G1 F1800 X53.991 Y67.5 E99.20985
G1 X53.99 Y56.5 E99.6996
G1 X96.01 Y56.49 E101.57041
G1 X96.01 Y67.5 E102.0606
G0 F3600 X96.41 Y67.9
G1 F1800 X53.591 Y67.9 E103.96699
G1 X53.59 Y56.1 E104.49235
G1 X96.41 Y56.09 E106.39878
G1 X96.41 Y67.9 E106.92458
G0 F3600 X96.81 Y68.3
G1 F1800 X53.191 Y68.3 E108.86659
G1 X53.19 Y55.7 E109.42757
G1 X96.81 Y55.69 E111.36962
G1 X96.81 Y68.3 E111.93104
G0 F3600 X97.21 Y68.7
G1 F1800 X52.791 Y68.7 E113.90866
G1 X52.79 Y55.3 E114.50526
G1 X97.21 Y55.29 E116.48293
G1 X97.21 Y68.7 E117.07997
G0 F3600 X97.61 Y69.1
G1 F1800 X52.391 Y69.1 E119.09321
G1 X52.39 Y54.9 E119.72542
G1 X97.61 Y54.89 E121.73871
G1 X97.61 Y69.1 E122.37136
G0 F3600 X98.01 Y69.5
G1 F1800 X51.991 Y69.5 E124.42022
G1 X51.99 Y54.5 E125.08805
G1 X98.01 Y54.49 E127.13696
G1 X98.01 Y69.5 E127.80523
G0 F3600 X98.41 Y69.9
G1 F1800 X51.591 Y69.9 E129.88971
G1 X51.59 Y54.1 E130.59316
G1 X98.41 Y54.09 E132.67768
G1 X98.41 Y69.9 E133.38157
G0 F3600 X98.81 Y70.3
G1 F1800 X51.191 Y70.3 E135.50166
G1 X51.19 Y53.7 E136.24073
G1 X98.81 Y53.69 E138.36087
G1 X98.81 Y70.3 E139.10038
G0 F3600 X99.21 Y70.7
G1 F1800 X50.791 Y70.7 E141.25609
G1 X50.79 Y53.3 E142.03077
G1 X99.21 Y53.29 E144.18653
G1 X99.21 Y70.7 E144.96166
G0 F3600 X99.61 Y71.1
G1 F1800 X50.391 Y71.1 E147.15299
G1 X50.39 Y52.9 E147.96329
G1 X99.61 Y52.89 E150.15466
G1 X99.61 Y71.1 E150.96541
G0 F3600 X100.01 Y71.5
G1 F1800 X49.991 Y71.5 E153.19235
G1 X49.99 Y52.5 E154.03827
G1 X100.01 Y52.49 E156.26526
G1 X100.01 Y71.5 E157.11163
G0 F3600 X100.41 Y71.9
G1 F1800 X49.591 Y71.9 E159.37419
G1 X49.59 Y52.1 E160.25573
G1 X100.41 Y52.09 E162.51834
G1 X100.41 Y71.9 E163.40032
G0 F3600 X100.81 Y72.3
G1 F1800 X49.191 Y72.3 E165.6985
G1 X49.19 Y51.7 E166.61565
G1 X100.81 Y51.69 E168.91388
G1 X100.81 Y72.3 E169.83148
G0 F3600 X101.21 Y72.7
G1 F1800 X48.791 Y72.7 E172.16528
G1 X48.79 Y51.3 E173.11805
G1 X101.21 Y51.29 E175.45189
G1 X101.21 Y72.7 E176.40511
G0 F3600 X101.61 Y73.1
G1 F1800 X48.391 Y73.1 E178.77453
G1 X48.39 Y50.9 E179.76292
G1 X101.61 Y50.89 E182.13238
G1 X101.61 Y73.1 E183.12121
G0 F3600 X102.01 Y73.5
G1 F1800 X47.991 Y73.5 E185.52625
G1 X47.99 Y50.5 E186.55025
G1 X102.01 Y50.49 E188.95533
G1 X102.01 Y73.5 E189.97978
G0 F3600 X102.41 Y73.9
G1 F1800 X47.591 Y73.9 E192.42044
G1 X47.59 Y50.1 E193.48006
G1 X102.41 Y50.09 E195.92076
G1 X102.41 Y73.9 E196.98083
G0 F3600 X102.81 Y74.3
G1 F1800 X47.191 Y74.3 E199.4571
G1 X47.19 Y49.7 E200.55234
G1 X102.81 Y49.69 E203.02865
G1 X102.81 Y74.3 E204.12434
G0 F3600 X103.21 Y74.7
G1 F1800 X46.791 Y74.7 E206.63623
G1 X46.79 Y49.3 E207.76709
G1 X103.21 Y49.29 E210.27902
G1 X103.21 Y74.7 E211.41032
G0 F3600 X103.61 Y75.1
G1 F1800 X46.391 Y75.1 E213.95783
G1 X46.39 Y48.9 E215.12431
G1 X103.61 Y48.89 E217.67186
G1 X103.61 Y75.1 E218.83878
G0 F3600 X104.01 Y75.5
G1 F1800 X45.991 Y75.5 E221.4219
G1 X45.99 Y48.5 E222.62399
G1 X104.01 Y48.49 E225.20716
G1 X104.01 Y75.5 E226.4097
G0 F3600 X104.41 Y75.9
G1 F1800 X45.591 Y75.9 E229.02844
G1 X45.59 Y48.1 E230.26615
G1 X104.41 Y48.09 E232.88494
G1 X104.41 Y75.9 E234.1231
G0 F3600 X104.81 Y76.3
G1 F1800 X45.191 Y76.3 E236.77745
G1 X45.19 Y47.7 E238.05078
G1 X104.81 Y47.69 E240.70519
G1 X104.81 Y76.3 E241.97896
G0 F3600 X105.21 Y76.7
G1 F1800 X44.791 Y76.7 E244.66894
G1 X44.79 Y47.3 E245.97788
G1 X105.21 Y47.29 E248.66791
G1 X105.21 Y76.7 E249.9773
G0 F3600 X105.61 Y77.1
G1 F1800 X44.391 Y77.1 E252.70289
G1 X44.39 Y46.9 E254.04746
G1 X105.61 Y46.89 E256.77309
G1 X105.61 Y77.1 E258.1181
G0 F3600 X105.69 Y77.5
G1 F1800 X44.31 Y77.5 E260.85087
G1 X44.31 Y93.16 E261.54808
G1 X105.69 Y93.16 E264.28084
G1 X105.69 Y77.5 E264.97806
G0 F3600 X105.29 Y77.9
G1 F1800 X44.71 Y77.9 E267.6752
G1 X44.71 Y92.76 E268.3368
G1 X105.29 Y92.76 E271.03394
G1 X105.29 Y77.9 E271.69554
G0 F3600 X104.89 Y78.3
G1 F1800 X45.11 Y78.3 E274.35706
G1 X45.11 Y92.36 E274.98304
G1 X104.89 Y92.36 E277.64457
G1 X104.89 Y78.3 E278.27055
G0 F3600 X104.49 Y78.7
G1 F1800 X45.51 Y78.7 E280.89646
G1 X45.51 Y91.96 E281.48682
G1 X104.49 Y91.96 E284.11273
G1 X104.49 Y78.7 E284.70309
G0 F3600 X104.09 Y79.1
G1 F1800 X45.91 Y79.1 E287.29338
G1 X45.91 Y91.56 E287.84813
G1 X104.09 Y91.56 E290.43842
G1 X104.09 Y79.1 E290.99316
G0 F3600 X103.69 Y79.5
G1 F1800 X46.31 Y79.5 E293.54783
G1 X46.31 Y91.16 E294.06696
G1 X103.69 Y91.16 E296.62163
G1 X103.69 Y79.5 E297.14076
G0 F3600 X103.29 Y79.9
G1 F1800 X46.71 Y79.9 E299.65982
G1 X46.71 Y90.76 E300.14333
G1 X103.29 Y90.76 E302.66238
G1 X103.29 Y79.9 E303.14589
G0 F3600 X102.89 Y80.3
G1 F1800 X47.11 Y80.3 E305.62933
G1 X47.11 Y90.36 E306.07722
G1 X102.89 Y90.36 E308.56066
G1 X102.89 Y80.3 E309.00855
G0 F3600 X102.49 Y80.7
G1 F1800 X47.51 Y80.7 E311.45637
G1 X47.51 Y89.96 E311.86864
G1 X102.49 Y89.96 E314.31646
G1 X102.49 Y80.7 E314.72874
G0 F3600 X102.09 Y81.1
G1 F1800 X47.91 Y81.1 E317.14094
G1 X47.91 Y89.56 E317.5176
G1 X102.09 Y89.56 E319.9298
G1 X102.09 Y81.1 E320.30646
G0 F3600 X106.01 Y46.49
G1 F1800 X106.01 Y93.509 E322.39984
G1 X43.991 Y93.51 E325.16105
G1 X43.99 Y46.5 E327.25403
G1 X106.01 Y46.49 E330.01528
G0 F3600 X106.41 Y46.09
G1 F1800 X106.41 Y93.909 E332.14428
G1 X43.591 Y93.91 E334.94111
G1 X43.59 Y46.1 E337.06971
G1 X106.41 Y46.09 E339.86658
G0 F3600 X106.81 Y46.19
G1 F1800 X106.81 Y94.072 E341.99839
G1 X106.806 Y94.309 E342.00894
G1 X43.477 Y94.31 E344.82847
G1 X43.191 Y94.305 E344.84121
G1 X43.19 Y45.7 E347.0052
G1 X106.507 Y45.69 E349.8242
G1 X106.809 Y45.695 E349.83765
G1 X106.81 Y46.19 E349.85969
G0 F3600 X107.21 Y46.189
G1 F1800 X107.21 Y94.079 E351.99185
G1 X107.202 Y94.513 E352.01117
G1 X107.202 Y94.517 E352.01135
G1 X107.182 Y94.589 E352.01468
G1 X107.181 Y94.593 E352.01486
G1 X107.175 Y94.603 E352.01538
G1 X107.157 Y94.624 E352.01661
G1 X107.12 Y94.66 E352.01891
G1 X107.093 Y94.678 E352.02036
G1 X107.052 Y94.693 E352.0223
G1 X107.028 Y94.698 E352.02339
G1 X106.859 Y94.709 E352.03093
G1 X43.47 Y94.71 E354.85314
G1 X42.993 Y94.702 E354.87438
G1 X42.978 Y94.7 E354.87505
G1 X42.914 Y94.683 E354.878
G1 X42.898 Y94.676 E354.87878
G1 X42.893 Y94.673 E354.87904
G1 X42.867 Y94.651 E354.88055
G1 X42.839 Y94.621 E354.88238
G1 X42.831 Y94.61 E354.88298
G1 X42.822 Y94.593 E354.88384
G1 X42.803 Y94.538 E354.88643
G1 X42.802 Y94.531 E354.88675
G1 X42.791 Y94.36 E354.89438
G1 X42.79 Y45.628 E357.06402
G1 X42.8 Y45.474 E357.07089
G1 X42.803 Y45.462 E357.07144
G1 X42.823 Y45.405 E357.07413
G1 X42.829 Y45.394 E357.07469
G1 X42.842 Y45.376 E357.07568
G1 X42.862 Y45.355 E357.07697
G1 X42.897 Y45.327 E357.07897
G1 X42.899 Y45.325 E357.07909
G1 X42.942 Y45.306 E357.08119
G1 X42.966 Y45.3 E357.08229
G1 X106.513 Y45.29 E359.91153
G1 X107.01 Y45.298 E359.93366
G1 X107.027 Y45.3 E359.93442
G1 X107.081 Y45.314 E359.9369
G1 X107.095 Y45.32 E359.93758
G1 X107.117 Y45.334 E359.93874
G1 X107.127 Y45.342 E359.93931
G1 X107.153 Y45.37 E359.94101
G1 X107.175 Y45.401 E359.94271
G1 X107.184 Y45.418 E359.94356
G1 X107.197 Y45.454 E359.94527
G1 X107.198 Y45.459 E359.94549
G1 X107.209 Y45.628 E359.95303
G1 X107.21 Y46.189 E359.97801
G0 F3600 X107.61 Y46.188
G1 F1800 X107.61 Y94.086 E362.11053
G1 X107.602 Y94.538 E362.13065
G1 X107.594 Y94.598 E362.13335
G1 X107.561 Y94.72 E362.13898
G1 X107.536 Y94.779 E362.14183
G1 X107.499 Y94.84 E362.145
G1 X107.448 Y94.9 E362.14851
G1 X107.373 Y94.972 E362.15314
G1 X107.301 Y95.021 E362.15702
G1 X107.256 Y95.045 E362.15929
G1 X107.16 Y95.079 E362.16382
G1 X107.087 Y95.095 E362.16715
G1 X106.87 Y95.109 E362.17683
G1 X43.464 Y95.11 E364.99979
G1 X42.961 Y95.102 E365.02219
G1 X42.9 Y95.094 E365.02493
G1 X42.783 Y95.062 E365.03033
G1 X42.715 Y95.033 E365.03362
G1 X42.659 Y94.999 E365.03654
G1 X42.594 Y94.945 E365.0403
