;FLAVOR:Marlin
;TIME:4218
;Filament used: 2.94902m
;Layer height: 0.2
;MINX:39.2
;MINY:40.841
;MINZ:0.3
;MAXX:110.9
;MAXY:98.3
;MAXZ:22.9
;Generated with Cura_SteamEngine 4.4.1
M140 S60
M105
M190 S60
M104 S230
M105
M109 S230
M82 ;absolute extrusion mode
M82 ;absolute extrusion mode
G21       ;metric values
G90       ;absolute positioning
M82       ;set extruder to absolute mode
M106      ;start with the fan on
G28 X0 Y0 ;home X/Y
G28 Z0    ;home Z
G92 E0    ;zero the extruded length
G29       ;initiate auto bed leveling sequence
G1 X150 Y145 Z15 F4000
G1 X150 Y145 Z0.30 F1000
G1 X1 Y150 Z0.25 E15.0 F2000
G1 X1 Y150 Z0.25 E14.0 F4000
G1 X1 Y1 Z0.25 F16000
G1 X1 Y1 Z0.25 E15.0 F4000
G92 E0
M107      ;start with the fan off
G92 E0
G92 E0
G92 E0
G1 F1500 E-6.5
;LAYER_COUNT:114
;LAYER:0
M107
;MESH:Enclosure_Body.stl
G0 F3600 X48.7 Y88.77 Z0.3
;TYPE:WALL-INNER
G1 F1500 E0
G1 F1800 X101.3 Y88.77 E2.34186
G1 X101.3 Y81.89 E2.64817
G1 X48.7 Y81.89 E4.99003
G1 X48.7 Y88.77 E5.29634
G0 F3600 X48.63 Y88.84
G0 X48.672 Y81.862
G0 X107.668 Y42.269
G0 X107.688 Y42.172
G1 F1800 X108.134 Y42.295 E5.31694
G1 X108.562 Y42.481 E5.33771
G1 X108.959 Y42.721 E5.35837
G1 X109.313 Y43.01 E5.37871
G1 X109.638 Y43.359 E5.39995
G1 X109.904 Y43.736 E5.42049
G1 X110.115 Y44.14 E5.44078
G1 X110.271 Y44.581 E5.46161
G1 X110.366 Y45.03 E5.48204
G1 X110.399 Y45.523 E5.50404
G1 X110.4 Y46.183 E5.53342
G1 X110.4 Y94.13 E7.66812
G1 X110.392 Y94.728 E7.69475
G1 X110.328 Y95.188 E7.71542
G1 X110.205 Y95.634 E7.73602
G1 X110.019 Y96.062 E7.7568
G1 X109.779 Y96.459 E7.77745
G1 X109.49 Y96.813 E7.7978
G1 X109.141 Y97.138 E7.81903
G1 X108.764 Y97.404 E7.83957
G1 X108.36 Y97.615 E7.85987
G1 X107.919 Y97.771 E7.88069
G1 X107.47 Y97.866 E7.90113
G1 X106.977 Y97.899 E7.92312
G1 X43.426 Y97.9 E10.75254
G1 X42.772 Y97.892 E10.78166
G1 X42.312 Y97.828 E10.80234
G1 X41.866 Y97.705 E10.82294
G1 X41.438 Y97.519 E10.84372
G1 X41.041 Y97.279 E10.86437
G1 X40.687 Y96.99 E10.88472
G1 X40.362 Y96.641 E10.90595
G1 X40.096 Y96.264 E10.92649
G1 X39.885 Y95.86 E10.94678
G1 X39.729 Y95.419 E10.96761
G1 X39.634 Y94.97 E10.98804
G1 X39.601 Y94.477 E11.01004
G1 X39.6 Y45.83 E13.1759
G1 X39.608 Y45.272 E13.20075
G1 X39.672 Y44.812 E13.22143
G1 X39.795 Y44.366 E13.24202
G1 X39.981 Y43.938 E13.2628
G1 X40.221 Y43.541 E13.28345
G1 X40.51 Y43.187 E13.3038
G1 X40.859 Y42.862 E13.32503
G1 X41.236 Y42.596 E13.34558
G1 X41.64 Y42.385 E13.36587
G1 X42.081 Y42.229 E13.38669
G1 X42.53 Y42.134 E13.40713
G1 X43.023 Y42.101 E13.42913
G1 X106.574 Y42.1 E16.25854
G1 X107.228 Y42.108 E16.28766
G1 X107.688 Y42.172 E16.30834
G0 F3600 X107.768 Y41.779
;TYPE:WALL-OUTER
G1 F1800 X108.273 Y41.919 E16.33167
G1 X108.742 Y42.123 E16.35444
G1 X109.192 Y42.395 E16.37785
G1 X109.589 Y42.719 E16.40067
G1 X109.949 Y43.105 E16.42417
G1 X110.245 Y43.524 E16.44701
G1 X110.483 Y43.982 E16.46999
G1 X110.656 Y44.468 E16.49296
G1 X110.763 Y44.978 E16.51616
G1 X110.799 Y45.511 E16.53994
G1 X110.8 Y46.182 E16.56981
G1 X110.8 Y94.135 E18.70478
G1 X110.792 Y94.756 E18.73243
G1 X110.721 Y95.268 E18.75544
G1 X110.581 Y95.773 E18.77877
G1 X110.377 Y96.242 E18.80155
G1 X110.105 Y96.692 E18.82496
G1 X109.781 Y97.089 E18.84777
G1 X109.395 Y97.449 E18.87127
G1 X108.976 Y97.745 E18.89411
G1 X108.518 Y97.983 E18.91709
G1 X108.032 Y98.156 E18.94006
G1 X107.522 Y98.263 E18.96326
G1 X106.989 Y98.299 E18.98704
G1 X43.421 Y98.3 E21.81722
G1 X42.744 Y98.292 E21.84736
G1 X42.232 Y98.221 E21.87037
G1 X41.727 Y98.081 E21.89371
G1 X41.258 Y97.877 E21.91648
G1 X40.808 Y97.605 E21.93989
G1 X40.411 Y97.281 E21.9627
G1 X40.051 Y96.895 E21.9862
G1 X39.755 Y96.476 E22.00904
G1 X39.517 Y96.018 E22.03202
G1 X39.344 Y95.532 E22.05499
G1 X39.237 Y95.022 E22.07819
G1 X39.201 Y94.489 E22.10197
G1 X39.2 Y45.824 E24.26864
G1 X39.208 Y45.244 E24.29446
G1 X39.279 Y44.732 E24.31748
G1 X39.419 Y44.227 E24.34081
G1 X39.623 Y43.758 E24.36358
G1 X39.895 Y43.308 E24.38699
G1 X40.219 Y42.911 E24.4098
G1 X40.605 Y42.551 E24.4333
G1 X41.024 Y42.255 E24.45614
G1 X41.482 Y42.017 E24.47912
G1 X41.968 Y41.844 E24.50209
G1 X42.478 Y41.737 E24.52529
G1 X43.011 Y41.701 E24.54908
G1 X106.579 Y41.7 E27.37925
G1 X107.256 Y41.708 E27.4094
G1 X107.768 Y41.779 E27.43241
G0 F3600 X107.96 Y41.832
G0 X107.827 Y42.313
G0 X48.672 Y81.862
G0 X48.6 Y88.37
G0 X49.1 Y88.37
G1 F1800 X100.9 Y88.37 E29.73865
G1 X100.9 Y82.29 E30.00934
G1 X49.1 Y82.29 E32.31558
G1 X49.1 Y88.37 E32.58628
G0 F3600 X49.3 Y88.37
G0 X49.3 Y88.87
G0 X48.31 Y89.16
;TYPE:SKIN
G1 F1800 X101.69 Y89.16 E34.96286
G1 X101.69 Y81.5 E35.3039
G1 X48.31 Y81.5 E37.68049
G1 X48.31 Y89.16 E38.02153
G0 F3600 X43.43 Y97.51
G1 F1800 X42.8 Y97.502 E38.04958
G1 X42.394 Y97.446 E38.06782
G1 X41.993 Y97.335 E38.08635
G1 X41.618 Y97.173 E38.10454
G1 X41.264 Y96.959 E38.12295
G1 X40.956 Y96.707 E38.14067
G1 X40.661 Y96.39 E38.15995
G1 X40.432 Y96.065 E38.17765
G1 X40.246 Y95.709 E38.19553
G1 X40.106 Y95.313 E38.21423
G1 X40.022 Y94.921 E38.23208
G1 X39.991 Y94.451 E38.25305
G1 X39.99 Y45.836 E40.41749
G1 X39.998 Y45.3 E40.44136
G1 X40.054 Y44.894 E40.4596
G1 X40.165 Y44.493 E40.47813
G1 X40.327 Y44.118 E40.49632
G1 X40.541 Y43.764 E40.51473
G1 X40.793 Y43.456 E40.53245
G1 X41.11 Y43.161 E40.55173
G1 X41.435 Y42.932 E40.56943
G1 X41.791 Y42.746 E40.58731
G1 X42.187 Y42.606 E40.60601
G1 X42.579 Y42.522 E40.62386
G1 X43.049 Y42.491 E40.64483
G1 X106.57 Y42.49 E43.47292
G1 X107.2 Y42.498 E43.50097
G1 X107.606 Y42.554 E43.51921
G1 X108.007 Y42.665 E43.53774
G1 X108.382 Y42.827 E43.55593
G1 X108.736 Y43.041 E43.57434
G1 X109.044 Y43.293 E43.59206
G1 X109.339 Y43.61 E43.61134
G1 X109.568 Y43.935 E43.62904
G1 X109.754 Y44.291 E43.64692
G1 X109.894 Y44.687 E43.66562
G1 X109.978 Y45.079 E43.68347
G1 X110.009 Y45.549 E43.70444
G1 X110.01 Y46.183 E43.73267
G1 X110.01 Y94.124 E45.8671
G1 X110.002 Y94.7 E45.89275
G1 X109.946 Y95.106 E45.91099
G1 X109.835 Y95.507 E45.92952
G1 X109.673 Y95.882 E45.94771
G1 X109.459 Y96.236 E45.96612
G1 X109.207 Y96.544 E45.98384
G1 X108.89 Y96.839 E46.00312
G1 X108.565 Y97.068 E46.02082
G1 X108.209 Y97.254 E46.0387
G1 X107.813 Y97.394 E46.0574
G1 X107.421 Y97.478 E46.07525
G1 X106.951 Y97.509 E46.09622
G1 X43.43 Y97.51 E48.92431
G0 F3600 X48.672 Y81.862
G0 X90.81 Y62.3
G1 F1800 X59.191 Y62.3 E50.33205
G1 X59.19 Y61.691 E50.35916
G1 X90.81 Y61.69 E51.76695
G1 X90.81 Y62.3 E51.79411
G0 F3600 X91.21 Y62.7
G1 F1800 X58.791 Y62.7 E53.23747
G1 X58.79 Y61.291 E53.3002
G1 X91.21 Y61.29 E54.7436
G1 X91.21 Y62.7 E54.80638
G0 F3600 X91.61 Y63.1
G1 F1800 X58.391 Y63.1 E56.28535
G1 X58.39 Y60.891 E56.3837
G1 X91.61 Y60.89 E57.86272
G1 X91.61 Y63.1 E57.96112
G0 F3600 X92.01 Y63.5
G1 F1800 X57.991 Y63.5 E59.47571
G1 X57.99 Y60.491 E59.60968
G1 X92.01 Y60.49 E61.12432
G1 X92.01 Y63.5 E61.25833
G0 F3600 X92.41 Y63.9
G1 F1800 X57.591 Y63.9 E62.80854
G1 X57.59 Y60.091 E62.97813
G1 X92.41 Y60.09 E64.52838
G1 X92.41 Y63.9 E64.69801
G0 F3600 X92.81 Y64.3
G1 F1800 X57.191 Y64.3 E66.28384
G1 X57.19 Y59.691 E66.48904
G1 X92.81 Y59.69 E68.07492
G1 X92.81 Y64.3 E68.28016
G0 F3600 X93.21 Y64.7
G1 F1800 X56.791 Y64.7 E69.90161
G1 X56.79 Y59.291 E70.14243
G1 X93.21 Y59.29 E71.76392
G1 X93.21 Y64.7 E72.00479
G0 F3600 X93.61 Y65.1
G1 F1800 X56.391 Y65.1 E73.66185
G1 X56.39 Y58.891 E73.93829
G1 X93.61 Y58.89 E75.5954
G1 X93.61 Y65.1 E75.87188
G0 F3600 X94.01 Y65.5
G1 F1800 X55.991 Y65.5 E77.56456
G1 X55.99 Y58.491 E77.87662
G1 X94.01 Y58.49 E79.56935
G1 X94.01 Y65.5 E79.88144
G0 F3600 X94.41 Y65.9
G1 F1800 X55.591 Y65.9 E81.60974
G1 X55.59 Y58.091 E81.95742
G1 X94.41 Y58.09 E83.68576
G1 X94.41 Y65.9 E84.03348
G0 F3600 X94.81 Y66.3
G1 F1800 X55.191 Y66.3 E85.7974
G1 X55.19 Y57.691 E86.18069
G1 X94.81 Y57.69 E87.94465
G1 X94.81 Y66.3 E88.32798
G0 F3600 X95.21 Y66.7
G1 F1800 X54.791 Y66.7 E90.12752
G1 X54.79 Y57.291 E90.54643
G1 X95.21 Y57.29 E92.34601
G1 X95.21 Y66.7 E92.76496
G0 F3600 X95.61 Y67.1
G1 F1800 X54.391 Y67.1 E94.60011
G1 X54.39 Y56.891 E95.05464
G1 X95.61 Y56.89 E96.88983
G1 X95.61 Y67.1 E97.3444
G0 F3600 X96.01 Y67.5
G1 F1800 X53.991 Y67.5 E99.21517
G1 X53.99 Y56.491 E99.70532
G1 X96.01 Y56.49 E101.57613
G1 X96.01 Y67.5 E102.06632
G0 F3600 X96.41 Y67.9
G1 F1800 X53.591 Y67.9 E103.97271
G1 X53.59 Y56.091 E104.49847
G1 X96.41 Y56.09 E106.4049
G1 X96.41 Y67.9 E106.93071
G0 F3600 X96.81 Y68.3
G1 F1800 X53.191 Y68.3 E108.87271
G1 X53.19 Y55.691 E109.43409
G1 X96.81 Y55.69 E111.37614
G1 X96.81 Y68.3 E111.93756
G0 F3600 X97.21 Y68.7
G1 F1800 X52.791 Y68.7 E113.91519
G1 X52.79 Y55.291 E114.51218
G1 X97.21 Y55.29 E116.48985
G1 X97.21 Y68.7 E117.08689
G0 F3600 X97.61 Y69.1
G1 F1800 X52.391 Y69.1 E119.10013
G1 X52.39 Y54.891 E119.73275
G1 X97.61 Y54.89 E121.74603
G1 X97.61 Y69.1 E122.37869
G0 F3600 X98.01 Y69.5
G1 F1800 X51.991 Y69.5 E124.42755
G1 X51.99 Y54.491 E125.09578
G1 X98.01 Y54.49 E127.14468
G1 X98.01 Y69.5 E127.81296
G0 F3600 X98.41 Y69.9
G1 F1800 X51.591 Y69.9 E129.89743
G1 X51.59 Y54.091 E130.60128
G1 X98.41 Y54.09 E132.6858
G1 X98.41 Y69.9 E133.3897
G0 F3600 X98.81 Y70.3
G1 F1800 X51.191 Y70.3 E135.50979
G1 X51.19 Y53.691 E136.24926
G1 X98.81 Y53.69 E138.36939
G1 X98.81 Y70.3 E139.10891
G0 F3600 X99.21 Y70.7
G1 F1800 X50.791 Y70.7 E141.26462
G1 X50.79 Y53.291 E142.0397
G1 X99.21 Y53.29 E144.19546
G1 X99.21 Y70.7 E144.97058
G0 F3600 X99.61 Y71.1
G1 F1800 X50.391 Y71.1 E147.16191
G1 X50.39 Y52.891 E147.97262
G1 X99.61 Y52.89 E150.16399
G1 X99.61 Y71.1 E150.97474
G0 F3600 X100.01 Y71.5
G1 F1800 X49.991 Y71.5 E153.20168
G1 X49.99 Y52.491 E154.048
G1 X100.01 Y52.49 E156.27499
G1 X100.01 Y71.5 E157.12136
G0 F3600 X100.41 Y71.9
G1 F1800 X49.591 Y71.9 E159.38392
G1 X49.59 Y52.091 E160.26586
G1 X100.41 Y52.09 E162.52847
G1 X100.41 Y71.9 E163.41045
G0 F3600 X100.81 Y72.3
G1 F1800 X49.191 Y72.3 E165.70863
G1 X49.19 Y51.691 E166.62618
G1 X100.81 Y51.69 E168.92441
G1 X100.81 Y72.3 E169.84201
G0 F3600 X101.21 Y72.7
G1 F1800 X48.791 Y72.7 E172.17581
G1 X48.79 Y51.291 E173.12898
G1 X101.21 Y51.29 E175.46282
G1 X101.21 Y72.7 E176.41604
G0 F3600 X101.61 Y73.1
G1 F1800 X48.391 Y73.1 E178.78546
G1 X48.39 Y50.891 E179.77425
G1 X101.61 Y50.89 E182.14371
G1 X101.61 Y73.1 E183.13254
G0 F3600 X102.01 Y73.5
G1 F1800 X47.991 Y73.5 E185.53758
G1 X47.99 Y50.491 E186.56198
G1 X102.01 Y50.49 E188.96706
G1 X102.01 Y73.5 E189.99152
G0 F3600 X102.41 Y73.9
G1 F1800 X47.591 Y73.9 E192.43217
G1 X47.59 Y50.091 E193.49219
G1 X102.41 Y50.09 E195.93289
G1 X102.41 Y73.9 E196.99296
G0 F3600 X102.81 Y74.3
G1 F1800 X47.191 Y74.3 E199.46923
G1 X47.19 Y49.691 E200.56487
G1 X102.81 Y49.69 E203.04119
G1 X102.81 Y74.3 E204.13687
G0 F3600 X103.21 Y74.7
G1 F1800 X46.791 Y74.7 E206.64876
G1 X46.79 Y49.291 E207.78002
G1 X103.21 Y49.29 E210.29195
G1 X103.21 Y74.7 E211.42326
G0 F3600 X103.61 Y75.1
G1 F1800 X46.391 Y75.1 E213.97076
G1 X46.39 Y48.891 E215.13764
G1 X103.61 Y48.89 E217.68519
G1 X103.61 Y75.1 E218.85211
G0 F3600 X104.01 Y75.5
G1 F1800 X45.991 Y75.5 E221.43523
G1 X45.99 Y48.491 E222.63773
G1 X104.01 Y48.49 E225.2209
G1 X104.01 Y75.5 E226.42344
G0 F3600 X104.41 Y75.9
G1 F1800 X45.591 Y75.9 E229.04218
G1 X45.59 Y48.091 E230.28029
G1 X104.41 Y48.09 E232.89907
G1 X104.41 Y75.9 E234.13723
G0 F3600 X104.81 Y76.3
G1 F1800 X45.191 Y76.3 E236.79159
G1 X45.19 Y47.691 E238.06532
G1 X104.81 Y47.69 E240.71972
G1 X104.81 Y76.3 E241.9935
G0 F3600 X105.21 Y76.7
G1 F1800 X44.791 Y76.7 E244.68347
G1 X44.79 Y47.291 E245.99282
G1 X105.21 Y47.29 E248.68284
G1 X105.21 Y76.7 E249.99223
G0 F3600 X105.61 Y77.1
G1 F1800 X44.391 Y77.1 E252.71783
G1 X44.39 Y46.891 E254.06279
G1 X105.61 Y46.89 E256.78843
G1 X105.61 Y77.1 E258.13344
G0 F3600 X105.69 Y77.5
G1 F1800 X44.31 Y77.5 E260.8662
G1 X44.31 Y93.16 E261.56342
G1 X105.69 Y93.16 E264.29618
G1 X105.69 Y77.5 E264.99339
G0 F3600 X105.29 Y77.9
G1 F1800 X44.71 Y77.9 E267.69054
G1 X44.71 Y92.76 E268.35213
G1 X105.29 Y92.76 E271.04928
G1 X105.29 Y77.9 E271.71088
G0 F3600 X104.89 Y78.3
G1 F1800 X45.11 Y78.3 E274.3724
G1 X45.11 Y92.36 E274.99838
G1 X104.89 Y92.36 E277.65991
G1 X104.89 Y78.3 E278.28589
G0 F3600 X104.49 Y78.7
G1 F1800 X45.51 Y78.7 E280.9118
G1 X45.51 Y91.96 E281.50216
G1 X104.49 Y91.96 E284.12807
G1 X104.49 Y78.7 E284.71843
G0 F3600 X104.09 Y79.1
G1 F1800 X45.91 Y79.1 E287.30872
G1 X45.91 Y91.56 E287.86346
G1 X104.09 Y91.56 E290.45375
G1 X104.09 Y79.1 E291.0085
G0 F3600 X103.69 Y79.5
G1 F1800 X46.31 Y79.5 E293.56317
G1 X46.31 Y91.16 E294.0823
G1 X103.69 Y91.16 E296.63697
G1 X103.69 Y79.5 E297.1561
G0 F3600 X103.29 Y79.9
G1 F1800 X46.71 Y79.9 E299.67515
G1 X46.71 Y90.76 E300.15866
G1 X103.29 Y90.76 E302.67772
G1 X103.29 Y79.9 E303.16123
G0 F3600 X102.89 Y80.3
G1 F1800 X47.11 Y80.3 E305.64467
G1 X47.11 Y90.36 E306.09256
G1 X102.89 Y90.36 E308.576
G1 X102.89 Y80.3 E309.02389
G0 F3600 X102.49 Y80.7
G1 F1800 X47.51 Y80.7 E311.47171
G1 X47.51 Y89.96 E311.88398
G1 X102.49 Y89.96 E314.3318
G1 X102.49 Y80.7 E314.74408
G0 F3600 X102.09 Y81.1
G1 F1800 X47.91 Y81.1 E317.15628
G1 X47.91 Y89.56 E317.53294
G1 X102.09 Y89.56 E319.94514
G1 X102.09 Y81.1 E320.32179
G0 F3600 X106.01 Y46.49
G1 F1800 X106.01 Y93.509 E322.41518
G1 X43.991 Y93.51 E325.17639
G1 X43.99 Y46.491 E327.26977
G1 X106.01 Y46.49 E330.03102
G0 F3600 X106.41 Y46.09
G1 F1800 X106.41 Y93.909 E332.16002
G1 X43.591 Y93.91 E334.95685
G1 X43.59 Y46.091 E337.08585
G1 X106.41 Y46.09 E339.88272
G0 F3600 X106.81 Y46.19
G1 F1800 X106.81 Y94.071 E342.01448
G1 X106.805 Y94.309 E342.02508
G1 X43.477 Y94.31 E344.84457
G1 X43.191 Y94.305 E344.8573
G1 X43.19 Y45.892 E347.01275
G1 X43.194 Y45.691 E347.0217
G1 X106.523 Y45.69 E349.84123
G1 X106.809 Y45.695 E349.85397
G1 X106.81 Y46.19 E349.87601
G0 F3600 X107.21 Y46.189
G1 F1800 X107.21 Y94.079 E352.00817
G1 X107.202 Y94.499 E352.02687
G1 X107.198 Y94.53 E352.02826
G1 X107.183 Y94.587 E352.03088
G1 X107.181 Y94.593 E352.03117
G1 X107.171 Y94.611 E352.03208
G1 X107.154 Y94.631 E352.03325
G1 X107.125 Y94.659 E352.03505
G1 X107.108 Y94.67 E352.03595
G1 X107.098 Y94.676 E352.03647
G1 X107.042 Y94.696 E352.03911
G1 X107.031 Y94.698 E352.03961
G1 X106.86 Y94.709 E352.04724
G1 X43.47 Y94.71 E354.86949
G1 X42.993 Y94.702 E354.89073
G1 X42.978 Y94.7 E354.89141
G1 X42.914 Y94.683 E354.89435
G1 X42.898 Y94.676 E354.89513
G1 X42.893 Y94.673 E354.89539
G1 X42.867 Y94.651 E354.89691
G1 X42.837 Y94.619 E354.89886
G1 X42.828 Y94.605 E354.8996
G1 X42.823 Y94.596 E354.90006
G1 X42.804 Y94.542 E354.90261
G1 X42.802 Y94.531 E354.90311
G1 X42.791 Y94.36 E354.91074
G1 X42.79 Y45.884 E357.06898
G1 X42.798 Y45.495 E357.08631
G1 X42.802 Y45.47 E357.08743
G1 X42.818 Y45.409 E357.09024
G1 X42.822 Y45.401 E357.09064
G1 X42.825 Y45.396 E357.0909
G1 X42.85 Y45.366 E357.09264
G1 X42.88 Y45.338 E357.09447
G1 X42.895 Y45.328 E357.09527
G1 X42.904 Y45.323 E357.09573
G1 X42.958 Y45.304 E357.09828
G1 X42.969 Y45.302 E357.09877
G1 X43.14 Y45.291 E357.1064
G1 X106.53 Y45.29 E359.92865
G1 X107.006 Y45.298 E359.94985
G1 X107.029 Y45.3 E359.95088
G1 X107.08 Y45.315 E359.95324
G1 X107.101 Y45.323 E359.95424
G1 X107.107 Y45.327 E359.95456
G1 X107.132 Y45.348 E359.95602
G1 X107.162 Y45.38 E359.95797
G1 X107.17 Y45.391 E359.95858
G1 X107.179 Y45.408 E359.95943
G1 X107.194 Y45.451 E359.96146
G1 X107.198 Y45.469 E359.96228
G1 X107.209 Y45.641 E359.96996
G1 X107.21 Y46.189 E359.99435
G0 F3600 X107.61 Y46.188
G1 F1800 X107.61 Y94.086 E362.12687
G1 X107.602 Y94.531 E362.14668
G1 X107.592 Y94.608 E362.15014
G1 X107.563 Y94.717 E362.15516
G1 X107.534 Y94.782 E362.15833
G1 X107.499 Y94.841 E362.16139
G1 X107.449 Y94.902 E362.1649
G1 X107.374 Y94.973 E362.1695
G1 X107.316 Y95.012 E362.17261
G1 X107.256 Y95.045 E362.17566
