;FLAVOR:Marlin
;TIME:1329
;Filament used: 1.19171m
;Layer height: 0.2
;MINX:44.7
;MINY:48.7
;MINZ:0.3
;MAXX:105.3
;MAXY:91.3
;MAXZ:8.3
;Generated with Cura_SteamEngine 4.4.1
M140 S60
M105
M190 S60
M104 S230
M105
M109 S230
M82 ;absolute extrusion mode
M82 ;absolute extrusion mode
G21       ;metric values
G90       ;absolute positioning
M82       ;set extruder to absolute mode
M106      ;start with the fan on
G28 X0 Y0 ;home X/Y
G28 Z0    ;home Z
G92 E0    ;zero the extruded length
G29       ;initiate auto bed leveling sequence
G1 X150 Y145 Z15 F4000
G1 X150 Y145 Z0.30 F1000
G1 X1 Y150 Z0.25 E15.0 F2000
G1 X1 Y150 Z0.25 E14.0 F4000
G1 X1 Y1 Z0.25 F16000
G1 X1 Y1 Z0.25 E15.0 F4000
G92 E0
M107      ;start with the fan off
G92 E0
G92 E0
G92 E0
G1 F1500 E-6.5
;LAYER_COUNT:41
;LAYER:0
M107
;MESH:Enclosure_Slide.stl
G0 F3600 X102.38 Y49.216 Z0.3
;TYPE:WALL-INNER
G1 F1500 E0
G1 F1800 X102.82 Y49.368 E0.02073
G1 X103.23 Y49.576 E0.04119
G1 X103.615 Y49.841 E0.062
G1 X103.959 Y50.157 E0.0828
G1 X104.252 Y50.508 E0.10316
G1 X104.501 Y50.91 E0.12421
G1 X104.688 Y51.327 E0.14456
G1 X104.817 Y51.769 E0.16506
G1 X104.886 Y52.234 E0.18599
G1 X104.9 Y84.7 E1.63144
G1 X104.9 Y84.9 E1.64034
G1 X104.7 Y84.9 E1.64611
G1 X45.1 Y84.9 E4.29962
G1 X45.1 Y49.1 E5.89351
G1 X101.478 Y49.1 E8.40357
G1 X101.933 Y49.128 E8.42387
G1 X102.38 Y49.216 E8.44415
G0 F3600 X102.486 Y48.83
;TYPE:WALL-OUTER
G1 F1800 X102.98 Y49 E8.46741
G1 X103.432 Y49.229 E8.48997
G1 X103.866 Y49.529 E8.51346
G1 X104.248 Y49.879 E8.53652
G1 X104.579 Y50.276 E8.55954
G1 X104.854 Y50.719 E8.58275
G1 X105.065 Y51.191 E8.60577
G1 X105.209 Y51.686 E8.62872
G1 X105.286 Y52.202 E8.65195
G1 X105.3 Y85.1 E10.11664
G1 X105.3 Y85.3 E10.12554
G1 X105.1 Y85.3 E10.13131
G1 X44.7 Y85.3 E12.82044
G1 X44.7 Y48.7 E14.44994
G1 X101.487 Y48.7 E16.97821
G1 X101.982 Y48.731 E17.00029
G1 X102.486 Y48.83 E17.02316
G0 F3600 X102.675 Y48.895
G0 X102.273 Y49.592
;TYPE:SKIN
G1 F1800 X102.676 Y49.73 E17.04213
G1 X103.02 Y49.906 E17.05933
G1 X103.374 Y50.149 E17.07845
G1 X103.673 Y50.424 E17.09653
G1 X103.94 Y50.744 E17.11509
G1 X104.156 Y51.093 E17.13336
G1 X104.321 Y51.461 E17.15132
G1 X104.434 Y51.848 E17.16927
G1 X104.496 Y52.265 E17.18804
G1 X104.51 Y84.51 E18.62365
G1 X45.49 Y84.51 E21.25134
G1 X45.49 Y49.49 E22.8105
G1 X101.454 Y49.49 E25.30213
G1 X101.892 Y49.517 E25.32167
G1 X102.273 Y49.592 E25.33896
G0 F3600 X87.303 Y67.31
G1 F1800 X62.69 Y67.31 E26.43478
G1 X62.69 Y66.69 E26.46238
G1 X87.303 Y66.69 E27.5582
G1 X87.303 Y67.31 E27.58581
G0 F3600 X87.704 Y67.71
G1 F1800 X62.29 Y67.71 E28.71729
G1 X62.29 Y66.29 E28.78051
G1 X87.702 Y66.29 E29.9119
G1 X87.704 Y67.71 E29.97512
G0 F3600 X88.104 Y68.11
G1 F1800 X61.89 Y68.11 E31.14222
G1 X61.89 Y65.89 E31.24106
G1 X88.102 Y65.89 E32.40807
G1 X88.104 Y68.11 E32.50691
G0 F3600 X88.505 Y68.51
G1 F1800 X61.49 Y68.51 E33.70968
G1 X61.49 Y65.49 E33.84413
G1 X88.501 Y65.49 E35.04672
G1 X88.505 Y68.51 E35.18117
G0 F3600 X88.905 Y68.91
G1 F1800 X61.09 Y68.91 E36.41955
G1 X61.09 Y65.09 E36.58963
G1 X88.901 Y65.09 E37.82783
G1 X88.905 Y68.91 E37.9979
G0 F3600 X89.306 Y69.31
G1 F1800 X60.69 Y69.31 E39.27194
G1 X60.69 Y64.69 E39.47764
G1 X89.3 Y64.69 E40.75141
G1 X89.306 Y69.31 E40.9571
G0 F3600 X89.706 Y69.71
G1 F1800 X60.29 Y69.71 E42.26676
G1 X60.29 Y64.29 E42.50807
G1 X89.7 Y64.29 E43.81746
G1 X89.706 Y69.71 E44.05877
G0 F3600 X90.107 Y70.11
G1 F1800 X59.89 Y70.11 E45.4041
G1 X59.89 Y63.89 E45.68102
G1 X90.099 Y63.89 E47.02599
G1 X90.107 Y70.11 E47.30292
G0 F3600 X90.507 Y70.51
G1 F1800 X59.49 Y70.51 E48.68385
G1 X59.49 Y63.49 E48.9964
G1 X90.499 Y63.49 E50.37698
G1 X90.507 Y70.51 E50.68953
G0 F3600 X90.908 Y70.91
G1 F1800 X59.09 Y70.91 E52.10613
G1 X59.09 Y63.09 E52.45429
G1 X90.898 Y63.09 E53.87045
G1 X90.908 Y70.91 E54.21861
G0 F3600 X91.308 Y71.31
G1 F1800 X58.69 Y71.31 E55.67083
G1 X58.69 Y62.69 E56.05461
G1 X91.298 Y62.69 E57.50638
G1 X91.308 Y71.31 E57.89016
G0 F3600 X91.709 Y71.71
G1 F1800 X58.29 Y71.71 E59.37804
G1 X58.29 Y62.29 E59.79744
G1 X91.697 Y62.29 E61.28479
G1 X91.709 Y71.71 E61.70419
G0 F3600 X92.109 Y72.11
G1 F1800 X57.89 Y72.11 E63.22769
G1 X57.89 Y61.89 E63.6827
G1 X92.097 Y61.89 E65.20566
G1 X92.109 Y72.11 E65.66068
G0 F3600 X92.51 Y72.51
G1 F1800 X57.49 Y72.51 E67.21984
G1 X57.49 Y61.49 E67.71047
G1 X92.496 Y61.49 E69.26901
G1 X92.51 Y72.51 E69.75964
G0 F3600 X92.91 Y72.91
G1 F1800 X57.09 Y72.91 E71.35442
G1 X57.09 Y61.09 E71.88067
G1 X92.896 Y61.09 E73.47483
G1 X92.91 Y72.91 E74.00108
G0 F3600 X93.31 Y73.31
G1 F1800 X56.69 Y73.31 E75.63148
G1 X56.69 Y60.69 E76.19334
G1 X93.296 Y60.69 E77.82312
G1 X93.31 Y73.31 E78.38498
G0 F3600 X93.71 Y73.71
G1 F1800 X56.29 Y73.71 E80.051
G1 X56.29 Y60.29 E80.64848
G1 X93.696 Y60.29 E82.31387
G1 X93.71 Y73.71 E82.91136
G0 F3600 X94.11 Y74.11
G1 F1800 X55.89 Y74.11 E84.61299
G1 X55.89 Y59.89 E85.24609
G1 X94.096 Y59.89 E86.9471
G1 X94.11 Y74.11 E87.58021
G0 F3600 X94.51 Y74.51
G1 F1800 X55.49 Y74.51 E89.31746
G1 X55.49 Y59.49 E89.98618
G1 X94.496 Y59.49 E91.7228
G1 X94.51 Y74.51 E92.39152
G0 F3600 X94.91 Y74.91
G1 F1800 X55.09 Y74.91 E94.16439
G1 X55.09 Y59.09 E94.86873
G1 X94.896 Y59.09 E96.64097
G1 X94.91 Y74.91 E97.34531
G0 F3600 X95.31 Y75.31
G1 F1800 X54.69 Y75.31 E99.15379
G1 X54.69 Y58.69 E99.89375
G1 X95.296 Y58.69 E101.70161
G1 X95.31 Y75.31 E102.44157
G0 F3600 X95.71 Y75.71
G1 F1800 X54.29 Y75.71 E104.28567
G1 X54.29 Y58.29 E105.06124
G1 X95.696 Y58.29 E106.90472
G1 X95.71 Y75.71 E107.6803
G0 F3600 X96.11 Y76.11
G1 F1800 X53.89 Y76.11 E109.56001
G1 X53.89 Y57.89 E110.37121
G1 X96.096 Y57.89 E112.2503
G1 X96.11 Y76.11 E113.06149
G0 F3600 X96.51 Y76.51
G1 F1800 X53.49 Y76.51 E114.97683
G1 X53.49 Y57.49 E115.82364
G1 X96.496 Y57.49 E117.73835
G1 X96.51 Y76.51 E118.58516
G0 F3600 X96.91 Y76.91
G1 F1800 X53.09 Y76.91 E120.53612
G1 X53.09 Y57.09 E121.41854
G1 X96.896 Y57.09 E123.36887
G1 X96.91 Y76.91 E124.2513
G0 F3600 X97.31 Y77.31
G1 F1800 X52.69 Y77.31 E126.23787
G1 X52.69 Y56.69 E127.15592
G1 X97.296 Y56.69 E129.14187
G1 X97.31 Y77.31 E130.05991
G0 F3600 X97.71 Y77.71
G1 F1800 X52.29 Y77.71 E132.0821
G1 X52.29 Y56.29 E133.03576
G1 X97.696 Y56.29 E135.05733
G1 X97.71 Y77.71 E136.01099
G0 F3600 X98.11 Y78.11
G1 F1800 X51.89 Y78.11 E138.0688
G1 X51.89 Y55.89 E139.05808
G1 X98.096 Y55.89 E141.11526
G1 X98.11 Y78.11 E142.10454
G0 F3600 X98.51 Y78.51
G1 F1800 X51.49 Y78.51 E144.19797
G1 X51.49 Y55.49 E145.22286
G1 X98.496 Y55.49 E147.31567
G1 X98.51 Y78.51 E148.34056
G0 F3600 X98.91 Y78.91
G1 F1800 X51.09 Y78.91 E150.46961
G1 X51.09 Y55.09 E151.53012
G1 X98.896 Y55.09 E153.65854
G1 X98.91 Y78.91 E154.71905
G0 F3600 X99.31 Y79.31
G1 F1800 X50.69 Y79.31 E156.88371
G1 X50.69 Y54.69 E157.97985
G1 X99.296 Y54.69 E160.14388
G1 X99.31 Y79.31 E161.24002
G0 F3600 X99.71 Y79.71
G1 F1800 X50.29 Y79.71 E163.44029
G1 X50.29 Y54.29 E164.57204
G1 X99.696 Y54.29 E166.7717
G1 X99.71 Y79.71 E167.90345
G0 F3600 X100.11 Y80.11
G1 F1800 X49.89 Y80.11 E170.13934
G1 X49.89 Y53.89 E171.30671
G1 X100.096 Y53.89 E173.54198
G1 X100.11 Y80.11 E174.70935
G0 F3600 X100.51 Y80.51
G1 F1800 X49.49 Y80.51 E176.98086
G1 X49.49 Y53.49 E178.18385
G1 X100.496 Y53.49 E180.45474
G1 X100.51 Y80.51 E181.65772
G0 F3600 X100.91 Y80.91
G1 F1800 X49.09 Y80.91 E183.96486
G1 X49.09 Y53.09 E185.20346
G1 X100.896 Y53.09 E187.50997
G1 X100.91 Y80.91 E188.74857
G0 F3600 X101.31 Y81.31
G1 F1800 X48.69 Y81.31 E191.09132
G1 X48.69 Y52.69 E192.36554
G1 X101.296 Y52.69 E194.70766
G1 X101.31 Y81.31 E195.98188
G0 F3600 X101.71 Y81.71
G1 F1800 X48.29 Y81.71 E198.36025
G1 X48.29 Y52.29 E199.67009
G1 X101.396 Y52.29 E202.03447
G1 X101.527 Y52.297 E202.04031
G1 X101.536 Y52.299 E202.04072
G1 X101.579 Y52.314 E202.04275
G1 X101.629 Y52.348 E202.04544
G1 X101.64 Y52.359 E202.04614
G1 X101.663 Y52.386 E202.04771
G1 X101.674 Y52.404 E202.04865
G1 X101.689 Y52.437 E202.05027
G1 X101.69 Y52.44 E202.05041
G1 X101.696 Y52.483 E202.05234
G1 X101.71 Y81.71 E203.35359
G0 F3600 X101.4 Y51.89
G1 F1800 X101.583 Y51.9 E203.36175
G1 X101.641 Y51.912 E203.36438
G1 X101.739 Y51.946 E203.369
G1 X101.783 Y51.968 E203.37119
G1 X101.876 Y52.032 E203.37622
G1 X101.933 Y52.085 E203.37968
G1 X101.989 Y52.153 E203.38361
G1 X102.027 Y52.214 E203.38681
G1 X102.063 Y52.293 E203.39067
G1 X102.082 Y52.357 E203.39364
G1 X102.096 Y52.454 E203.39801
G1 X102.11 Y82.11 E204.71835
G1 X47.89 Y82.11 E207.13233
G1 X47.89 Y51.89 E208.47779
G1 X101.4 Y51.89 E210.86016
G0 F3600 X101.404 Y51.49
G1 F1800 X101.636 Y51.503 E210.87051
G1 X101.745 Y51.525 E210.87546
G1 X101.896 Y51.577 E210.88257
G1 X101.988 Y51.624 E210.88717
G1 X102.127 Y51.72 E210.89469
G1 X102.223 Y51.809 E210.90052
G1 X102.314 Y51.918 E210.90684
G1 X102.382 Y52.028 E210.9126
G1 X102.439 Y52.153 E210.91871
G1 X102.474 Y52.273 E210.92428
G1 X102.496 Y52.423 E210.93103
G1 X102.51 Y82.51 E212.27056
G1 X47.49 Y82.51 E214.72017
G1 X47.49 Y51.49 E216.10124
G1 X101.404 Y51.49 E218.5016
G0 F3600 X101.41 Y51.09
G1 F1800 X101.69 Y51.106 E218.51408
G1 X101.852 Y51.139 E218.52145
G1 X102.051 Y51.207 E218.53081
G1 X102.193 Y51.279 E218.5379
G1 X102.375 Y51.405 E218.54775
G1 X102.518 Y51.536 E218.55639
G1 X102.636 Y51.679 E218.56464
G1 X102.737 Y51.841 E218.57314
G1 X102.815 Y52.014 E218.58159
G1 X102.866 Y52.187 E218.58962
G1 X102.896 Y52.392 E218.59884
G1 X102.91 Y82.91 E219.95757
G1 X47.09 Y82.91 E222.44279
G1 X47.09 Y51.09 E223.85948
G1 X101.41 Y51.09 E226.27791
G0 F3600 X101.416 Y50.69
G1 F1800 X101.741 Y50.709 E226.29241
G1 X101.961 Y50.753 E226.3024
G1 X102.204 Y50.836 E226.31383
G1 X102.402 Y50.937 E226.32372
G1 X102.623 Y51.09 E226.33569
G1 X102.808 Y51.259 E226.34685
G1 X102.963 Y51.446 E226.35766
G1 X103.091 Y51.652 E226.36846
G1 X103.191 Y51.874 E226.3793
G1 X103.258 Y52.104 E226.38996
G1 X103.296 Y52.36 E226.40149
G1 X103.31 Y83.31 E227.77944
G1 X46.69 Y83.31 E230.30028
G1 X46.69 Y50.69 E231.75259
G1 X101.416 Y50.69 E234.1891
G0 F3600 X101.423 Y50.29
G1 F1800 X101.792 Y50.312 E234.20556
G1 X102.07 Y50.367 E234.21818
G1 X102.357 Y50.465 E234.23168
G1 X102.607 Y50.593 E234.24418
G1 X102.874 Y50.777 E234.25862
G1 X103.097 Y50.982 E234.2721
G1 X103.288 Y51.211 E234.28538
G1 X103.447 Y51.468 E234.29884
G1 X103.568 Y51.738 E234.31201
G1 X103.65 Y52.015 E234.32487
G1 X103.696 Y52.329 E234.339
G1 X103.71 Y83.71 E235.73615
G1 X46.29 Y83.71 E238.2926
G1 X46.29 Y50.29 E239.78053
G1 X101.423 Y50.29 E242.23516
G0 F3600 X101.43 Y49.89
G1 F1800 X101.848 Y49.915 E242.2538
G1 X102.169 Y49.978 E242.26837
G1 X102.518 Y50.098 E242.2848
G1 X102.814 Y50.25 E242.29961
G1 X103.124 Y50.463 E242.31636
G1 X103.383 Y50.701 E242.33202
G1 X103.615 Y50.979 E242.34814
G1 X103.8 Y51.277 E242.36375
G1 X103.945 Y51.601 E242.37956
G1 X104.042 Y51.932 E242.39491
G1 X104.096 Y52.297 E242.41134
G1 X104.11 Y84.11 E243.82772
G1 X45.89 Y84.11 E246.41979
G1 X45.89 Y49.89 E247.94334
G1 X101.43 Y49.89 E250.41609
G0 F3600 X86.986 Y66.905
;TYPE:SKIN
G1 F1800 X87.087 Y67.005 E250.41925
G0 F3600 X86.892 Y67.093
G1 F1800 X86.704 Y66.905 E250.42517
G0 F3600 X86.609 Y67.093
G1 F1800 X86.421 Y66.905 E250.43109
G0 F3600 X86.327 Y67.093
G1 F1800 X86.138 Y66.905 E250.43702
G0 F3600 X86.044 Y67.093
G1 F1800 X85.855 Y66.905 E250.44296
G0 F3600 X85.761 Y67.093
G1 F1800 X85.572 Y66.905 E250.44889
G0 F3600 X85.478 Y67.093
G1 F1800 X85.289 Y66.905 E250.45483
G0 F3600 X85.195 Y67.093
G1 F1800 X85.006 Y66.905 E250.46076
G0 F3600 X84.912 Y67.093
G1 F1800 X84.724 Y66.905 E250.46668
G0 F3600 X84.63 Y67.093
G1 F1800 X84.441 Y66.905 E250.47261
G0 F3600 X84.347 Y67.093
G1 F1800 X84.158 Y66.905 E250.47855
G0 F3600 X84.064 Y67.093
G1 F1800 X83.875 Y66.905 E250.48448
G0 F3600 X83.781 Y67.093
G1 F1800 X83.592 Y66.905 E250.49042
G0 F3600 X83.498 Y67.093
G1 F1800 X83.309 Y66.905 E250.49635
G0 F3600 X83.215 Y67.093
G1 F1800 X83.027 Y66.905 E250.50227
G0 F3600 X82.933 Y67.093
G1 F1800 X82.744 Y66.905 E250.50821
G0 F3600 X82.65 Y67.093
G1 F1800 X82.461 Y66.905 E250.51414
G0 F3600 X82.367 Y67.093
G1 F1800 X82.178 Y66.905 E250.52007
G0 F3600 X82.084 Y67.093
G1 F1800 X81.895 Y66.905 E250.52601
G0 F3600 X81.801 Y67.093
G1 F1800 X81.612 Y66.905 E250.53194
G0 F3600 X81.518 Y67.093
G1 F1800 X81.33 Y66.905 E250.53786
G0 F3600 X81.235 Y67.093
G1 F1800 X81.047 Y66.905 E250.54378
G0 F3600 X80.953 Y67.093
G1 F1800 X80.764 Y66.905 E250.54971
G0 F3600 X80.67 Y67.093
G1 F1800 X80.481 Y66.905 E250.55565
G0 F3600 X80.387 Y67.093
G1 F1800 X80.198 Y66.905 E250.56158
G0 F3600 X80.104 Y67.093
G1 F1800 X79.915 Y66.905 E250.56752
G0 F3600 X79.821 Y67.093
G1 F1800 X79.632 Y66.905 E250.57345
G0 F3600 X79.538 Y67.093
G1 F1800 X79.35 Y66.905 E250.57937
G0 F3600 X79.256 Y67.093
G1 F1800 X79.067 Y66.905 E250.5853
G0 F3600 X78.973 Y67.093
G1 F1800 X78.784 Y66.905 E250.59124
G0 F3600 X78.69 Y67.093
G1 F1800 X78.501 Y66.905 E250.59717
G0 F3600 X78.407 Y67.093
G1 F1800 X78.218 Y66.905 E250.60311
G0 F3600 X78.124 Y67.093
G1 F1800 X77.935 Y66.905 E250.60904
G0 F3600 X77.841 Y67.093
G1 F1800 X77.653 Y66.905 E250.61496
G0 F3600 X77.559 Y67.093
G1 F1800 X77.37 Y66.905 E250.62089
G0 F3600 X77.276 Y67.093
G1 F1800 X77.087 Y66.905 E250.62683
G0 F3600 X76.993 Y67.093
G1 F1800 X76.804 Y66.905 E250.63276
G0 F3600 X76.71 Y67.093
G1 F1800 X76.521 Y66.905 E250.6387
G0 F3600 X76.427 Y67.093
G1 F1800 X76.238 Y66.905 E250.64463
G0 F3600 X76.144 Y67.093
G1 F1800 X75.955 Y66.905 E250.65057
G0 F3600 X75.861 Y67.093
G1 F1800 X75.673 Y66.905 E250.65648
G0 F3600 X75.579 Y67.093
G1 F1800 X75.39 Y66.905 E250.66242
G0 F3600 X75.296 Y67.093
G1 F1800 X75.107 Y66.905 E250.66835
G0 F3600 X75.013 Y67.093
G1 F1800 X74.824 Y66.905 E250.67429
G0 F3600 X74.73 Y67.093
G1 F1800 X74.541 Y66.905 E250.68022
G0 F3600 X74.447 Y67.093
G1 F1800 X74.258 Y66.905 E250.68616
G0 F3600 X74.164 Y67.093
G1 F1800 X73.976 Y66.905 E250.69208
G0 F3600 X73.882 Y67.093
G1 F1800 X73.693 Y66.905 E250.69801
G0 F3600 X73.599 Y67.093
G1 F1800 X73.41 Y66.905 E250.70394
G0 F3600 X73.316 Y67.093
G1 F1800 X73.127 Y66.905 E250.70988
G0 F3600 X73.033 Y67.093
G1 F1800 X72.844 Y66.905 E250.71581
G0 F3600 X72.75 Y67.093
G1 F1800 X72.561 Y66.905 E250.72175
G0 F3600 X72.467 Y67.093
G1 F1800 X72.279 Y66.905 E250.72767
G0 F3600 X72.184 Y67.093
G1 F1800 X71.996 Y66.905 E250.73358
G0 F3600 X71.902 Y67.093
G1 F1800 X71.713 Y66.905 E250.73952
G0 F3600 X71.619 Y67.093
G1 F1800 X71.43 Y66.905 E250.74545
G0 F3600 X71.336 Y67.093
G1 F1800 X71.147 Y66.905 E250.75139
G0 F3600 X71.053 Y67.093
G1 F1800 X70.864 Y66.905 E250.75732
G0 F3600 X70.77 Y67.093
G1 F1800 X70.581 Y66.905 E250.76326
G0 F3600 X70.487 Y67.093
G1 F1800 X70.299 Y66.905 E250.76917
G0 F3600 X70.205 Y67.093
G1 F1800 X70.016 Y66.905 E250.77511
G0 F3600 X69.922 Y67.093
G1 F1800 X69.733 Y66.905 E250.78104
G0 F3600 X69.639 Y67.093
G1 F1800 X69.45 Y66.905 E250.78698
G0 F3600 X69.356 Y67.093
G1 F1800 X69.167 Y66.905 E250.79291
G0 F3600 X69.073 Y67.093
G1 F1800 X68.884 Y66.905 E250.79885
G0 F3600 X68.79 Y67.093
G1 F1800 X68.602 Y66.905 E250.80476
G0 F3600 X68.508 Y67.093
G1 F1800 X68.319 Y66.905 E250.8107
G0 F3600 X68.225 Y67.093
G1 F1800 X68.036 Y66.905 E250.81663
G0 F3600 X67.942 Y67.093
G1 F1800 X67.753 Y66.905 E250.82257
G0 F3600 X67.659 Y67.093
G1 F1800 X67.47 Y66.905 E250.8285
G0 F3600 X67.376 Y67.093
G1 F1800 X67.187 Y66.905 E250.83444
G0 F3600 X67.093 Y67.093
G1 F1800 X66.905 Y66.905 E250.84036
G0 F3600 X66.81 Y67.093
G1 F1800 X66.622 Y66.905 E250.84627
G0 F3600 X66.528 Y67.093
G1 F1800 X66.339 Y66.905 E250.85221
G0 F3600 X66.245 Y67.093
G1 F1800 X66.056 Y66.905 E250.85814
G0 F3600 X65.962 Y67.093
G1 F1800 X65.773 Y66.905 E250.86408
G0 F3600 X65.679 Y67.093
G1 F1800 X65.49 Y66.905 E250.87001
